; LightBurn 1.4.04
; GRBL-M3 (1.1e or earlier) device profile, absolute coords
; Bounds: X0 Y2.01 to X294.57 Y243
G00 G17 G40 G21 G54
G90
; Cut @ 40 mm/sec, 70% power
M8
M5
G0 X250.871Y12.197
; Layer Labels
M3
G1 Y12.877S178.5F2400
G1 X251.157Y13.023
G1 X251.424Y13.184
G1 X251.672Y13.359
G1 X251.902Y13.549
G1 X252.107Y13.745
G1 X252.279Y13.938
G1 X252.419Y14.127
G1 X252.527Y14.315
G1 X252.98
G1 Y8.565
G1 X252.277
G1 Y13.045
G1 X251.984Y12.803
G1 X251.611Y12.561
G1 X251.22Y12.349
G1 X250.871Y12.197
M5
G0 X254.726Y12.197
M3
G1 Y12.877
G1 X255.012Y13.023
G1 X255.279Y13.184
G1 X255.527Y13.359
G1 X255.757Y13.549
G1 X255.962Y13.745
G1 X256.134Y13.938
G1 X256.274Y14.127
G1 X256.382Y14.315
G1 X256.835
G1 Y8.565
G1 X256.132
G1 Y13.045
G1 X255.839Y12.803
G1 X255.466Y12.561
G1 X255.075Y12.349
G1 X254.726Y12.197
M5
G0 X259.381Y12.038
M3
G1 X259.364Y11.727
G1 Y11.389
G1 Y11.051
G1 X259.379Y10.743
G1 X259.405Y10.464
G1 X259.441Y10.214
G1 X259.487Y9.995
G1 X259.544Y9.804
G1 X259.611Y9.643
G1 X259.689Y9.512
G1 X259.863Y9.308
G1 X260.057Y9.162
G1 X260.27Y9.074
G1 X260.503Y9.045
G1 X260.736Y9.074
G1 X260.949Y9.162
G1 X261.143Y9.309
G1 X261.317Y9.514
G1 X261.395Y9.646
G1 X261.462Y9.807
G1 X261.519Y9.997
G1 X261.565Y10.217
G1 X261.601Y10.466
G1 X261.627Y10.744
G1 X261.642Y11.052
G1 Y11.389
G1 Y11.727
G1 X261.627Y12.036
G1 X261.601Y12.316
G1 X261.565Y12.565
G1 X261.519Y12.786
G1 X261.462Y12.976
G1 X261.395Y13.137
G1 X261.317Y13.268
G1 X261.142Y13.471
G1 X260.947Y13.616
G1 X260.731Y13.703
G1 X260.495Y13.732
G1 X260.265Y13.707
G1 X260.06Y13.63
G1 X259.878Y13.502
G1 X259.722Y13.322
G1 X259.637Y13.178
G1 X259.563Y13.005
G1 X259.5Y12.805
G1 X259.449Y12.577
G1 X259.41Y12.322
G1 X259.381Y12.038
M5
G0 X258.649Y11.872
M3
G1 X258.688Y12.305
G1 X258.753Y12.689
G1 X258.845Y13.023
G1 X258.962Y13.315
G1 X259.105Y13.572
G1 X259.272Y13.793
G1 X259.466Y13.979
G1 X259.685Y14.126
G1 X259.931Y14.231
G1 X260.204Y14.294
G1 X260.503Y14.315
G1 X260.726Y14.303
G1 X260.936Y14.268
G1 X261.131Y14.21
G1 X261.312Y14.129
G1 X261.478Y14.026
G1 X261.629Y13.902
G1 X261.765Y13.758
G1 X261.886Y13.594
G1 X262.088Y13.206
G1 X262.241Y12.742
G1 X262.298Y12.469
G1 X262.338Y12.153
G1 X262.362Y11.793
G1 Y11.389
G1 Y10.909
G1 X262.318Y10.478
G1 X262.254Y10.096
G1 X262.163Y9.762
G1 X262.047Y9.47
G1 X261.905Y9.213
G1 X261.737Y8.991
G1 X261.544Y8.805
G1 X261.324Y8.657
G1 X261.078Y8.551
G1 X260.804Y8.488
G1 X260.503Y8.467
G1 X260.111Y8.504
G1 X259.764Y8.615
G1 X259.461Y8.801
G1 X259.202Y9.061
G1 X259.069Y9.253
G1 X258.954Y9.474
G1 X258.857Y9.723
G1 X258.777Y10
G1 X258.715Y10.305
G1 X258.671Y10.638
G1 X258.645Y10.999
G1 Y11.389
G1 Y11.872
M5
G0 X265.502Y12.713
M3
G1 X266.131
G1 Y12.131
G1 X266.237Y12.276
G1 X266.359Y12.406
G1 X266.497Y12.521
G1 X266.651Y12.621
G1 X266.819Y12.702
G1 X266.997Y12.76
G1 X267.188Y12.795
G1 X267.389Y12.807
G1 X267.609Y12.795
G1 X267.809Y12.759
G1 X267.987Y12.699
G1 X268.145Y12.615
G1 X268.282Y12.51
G1 X268.396Y12.386
G1 X268.49Y12.242
G1 X268.561Y12.08
G1 X268.826Y12.398
G1 X269.127Y12.625
G1 X269.466Y12.761
G1 X269.842Y12.807
G1 X270.133Y12.785
G1 X270.388Y12.721
G1 X270.608Y12.614
G1 X270.791Y12.465
G1 X270.937Y12.271
G1 X271.04Y12.031
G1 X271.103Y11.745
G1 X271.123Y11.412
G1 Y8.565
G1 X270.424
G1 Y11.178
G1 Y11.374
G1 X270.407Y11.541
G1 X270.386Y11.678
G1 X270.356Y11.785
G1 X270.26Y11.953
G1 X270.108Y12.084
G1 X269.912Y12.169
G1 X269.686Y12.197
G1 X269.476Y12.179
G1 X269.286Y12.125
G1 X269.113Y12.034
G1 X268.959Y11.906
G1 X268.833Y11.739
G1 X268.743Y11.528
G1 X268.688Y11.273
G1 X268.67Y10.975
G1 Y8.565
G1 X267.967
G1 Y11.26
G1 X267.956Y11.48
G1 X267.924Y11.67
G1 X267.871Y11.831
G1 X267.795Y11.963
G1 X267.696Y12.065
G1 X267.569Y12.139
G1 X267.414Y12.183
G1 X267.233Y12.197
G1 X267.087
G1 X266.947Y12.158
G1 X266.813Y12.109
G1 X266.684Y12.041
G1 X266.567Y11.954
G1 X266.467Y11.849
G1 X266.384Y11.725
G1 X266.319Y11.584
G1 X266.269Y11.417
G1 X266.234Y11.217
G1 X266.213Y10.983
G1 Y10.717
G1 Y8.565
G1 X265.502
G1 Y12.713
M5
G0 X272.166Y12.713
M3
G1 X272.795
G1 Y12.131
G1 X272.901Y12.276
G1 X273.023Y12.406
G1 X273.16Y12.521
G1 X273.315Y12.621
G1 X273.482Y12.702
G1 X273.661Y12.76
G1 X273.851Y12.795
G1 X274.053Y12.807
G1 X274.273Y12.795
G1 X274.472Y12.759
G1 X274.651Y12.699
G1 X274.809Y12.615
G1 X274.945Y12.51
G1 X275.06Y12.386
G1 X275.153Y12.242
G1 X275.225Y12.08
G1 X275.489Y12.398
G1 X275.791Y12.625
G1 X276.13Y12.761
G1 X276.506Y12.807
G1 X276.797Y12.785
G1 X277.052Y12.721
G1 X277.271Y12.614
G1 X277.455Y12.465
G1 X277.6Y12.271
G1 X277.704Y12.031
G1 X277.766Y11.745
G1 X277.787Y11.412
G1 Y8.565
G1 X277.088
G1 Y11.178
G1 Y11.374
G1 X277.071Y11.541
G1 X277.05Y11.678
G1 X277.02Y11.785
G1 X276.923Y11.953
G1 X276.772Y12.084
G1 X276.576Y12.169
G1 X276.35Y12.197
G1 X276.14Y12.179
G1 X275.949Y12.125
G1 X275.777Y12.034
G1 X275.623Y11.906
G1 X275.497Y11.739
G1 X275.406Y11.528
G1 X275.352Y11.273
G1 X275.334Y10.975
G1 Y8.565
G1 X274.631
G1 Y11.26
G1 X274.62Y11.48
G1 X274.588Y11.67
G1 X274.534Y11.831
G1 X274.459Y11.963
G1 X274.359Y12.065
G1 X274.233Y12.139
G1 X274.078Y12.183
G1 X273.897Y12.197
G1 X273.751
G1 X273.611Y12.158
G1 X273.477Y12.109
G1 X273.348Y12.041
G1 X273.23Y11.954
G1 X273.13Y11.849
G1 X273.048Y11.725
G1 X272.983Y11.584
G1 X272.933Y11.417
G1 X272.898Y11.217
G1 X272.876Y10.983
G1 Y10.717
G1 Y8.565
G1 X272.166
G1 Y12.713
M5
G0 X279.963Y14.389
M3
G1 X280.525
G1 X278.869Y8.467
G1 X278.302
G1 X279.963Y14.389
M5
G0 X281.555Y12.629
M3
G1 X281.808Y12.723
G1 X282.102Y12.786
G1 X282.416Y12.807
G1 X282.652
G1 X282.874Y12.772
G1 X283.081Y12.728
G1 X283.273Y12.666
G1 X283.446Y12.59
G1 X283.594Y12.501
G1 X283.718Y12.399
G1 X283.818Y12.285
G1 X283.899Y12.155
G1 X283.966Y12.004
G1 X284.02Y11.834
G1 X284.06Y11.643
G1 X283.373Y11.549
G1 X283.338Y11.7
G1 X283.281Y11.834
G1 X283.202Y11.95
G1 X283.101Y12.049
G1 X282.977Y12.127
G1 X282.83Y12.184
G1 X282.66Y12.217
G1 X282.466Y12.229
G1 X282.242Y12.219
G1 X282.051Y12.189
G1 X281.896Y12.138
G1 X281.775Y12.068
G1 X281.684Y11.985
G1 X281.62Y11.895
G1 X281.581Y11.797
G1 X281.568Y11.693
G1 X281.589Y11.564
G1 X281.654Y11.447
G1 X281.764Y11.344
G1 X281.923Y11.26
G1 X282.002Y11.234
G1 X282.131Y11.195
G1 X282.312Y11.144
G1 X282.889Y10.985
G1 X283.178Y10.899
G1 X283.41Y10.822
G1 X283.586Y10.754
G1 X283.725Y10.683
G1 X283.849Y10.598
G1 X283.957Y10.499
G1 X284.048Y10.385
G1 X284.122Y10.256
G1 X284.174Y10.113
G1 X284.206Y9.956
G1 X284.216Y9.783
G1 X284.204Y9.61
G1 X284.165Y9.442
G1 X284.101Y9.279
G1 X284.011Y9.121
G1 X283.897Y8.975
G1 X283.761Y8.846
G1 X283.602Y8.734
G1 X283.42Y8.641
G1 X283.22Y8.566
G1 X283.007Y8.513
G1 X282.782Y8.481
G1 X282.545Y8.471
G1 X282.164Y8.492
G1 X281.832Y8.555
G1 X281.548Y8.66
G1 X281.312Y8.807
G1 X281.119Y8.995
G1 X280.965Y9.224
G1 X280.849Y9.493
G1 X280.771Y9.803
G1 X281.466Y9.912
G1 X281.509Y9.715
G1 X281.577Y9.543
G1 X281.672Y9.395
G1 X281.793Y9.272
G1 X281.94Y9.174
G1 X282.113Y9.105
G1 X282.314Y9.063
G1 X282.541Y9.049
G1 X282.767Y9.061
G1 X282.962Y9.098
G1 X283.127Y9.16
G1 X283.259Y9.246
G1 X283.362Y9.349
G1 X283.435Y9.46
G1 X283.479Y9.58
G1 X283.494Y9.709
G1 X283.481Y9.822
G1 X283.442Y9.922
G1 X283.377Y10.009
G1 X283.287Y10.084
G1 X283.188Y10.134
G1 X283.035Y10.19
G1 X282.828Y10.253
G1 X282.211Y10.417
G1 X281.913Y10.504
G1 X281.675Y10.586
G1 X281.496Y10.66
G1 X281.355Y10.738
G1 X281.233Y10.83
G1 X281.129Y10.936
G1 X281.043Y11.055
G1 X280.975Y11.184
G1 X280.927Y11.32
G1 X280.898Y11.462
G1 Y11.611
G1 X280.92Y11.878
G1 X281.015Y12.125
G1 X281.165Y12.341
G1 X281.361Y12.518
G1 X281.555Y12.629
M5
G0 X278.927Y33.481
M3
G1 X278.69Y33.471
G1 X278.309Y33.492
G1 X277.977Y33.555
G1 X277.693Y33.66
G1 X277.457Y33.807
G1 X277.264Y33.995
G1 X277.11Y34.224
G1 X276.994Y34.493
G1 X276.916Y34.803
G1 X277.611Y34.912
G1 X277.654Y34.715
G1 X277.722Y34.543
G1 X277.817Y34.395
G1 X277.938Y34.272
G1 X278.085Y34.174
G1 X278.258Y34.105
G1 X278.459Y34.063
G1 X278.686Y34.049
G1 X278.912Y34.061
G1 X279.108Y34.098
G1 X279.272Y34.16
G1 X279.404Y34.246
G1 X279.507Y34.349
G1 X279.58Y34.46
G1 X279.624Y34.58
G1 X279.639Y34.709
G1 X279.626Y34.822
G1 X279.587Y34.922
G1 X279.522Y35.009
G1 X279.432Y35.084
G1 X279.333Y35.134
G1 X279.18Y35.19
G1 X278.973Y35.253
G1 X278.356Y35.417
G1 X278.058Y35.504
G1 X277.82Y35.586
G1 X277.641Y35.66
G1 X277.5Y35.738
G1 X277.378Y35.83
G1 X277.274Y35.936
G1 X277.188Y36.055
G1 X277.12Y36.184
G1 X277.072Y36.32
G1 X277.043Y36.462
G1 Y36.611
G1 X277.065Y36.878
G1 X277.16Y37.125
G1 X277.31Y37.341
G1 X277.506Y37.518
G1 X277.7Y37.629
G1 X277.953Y37.723
G1 X278.247Y37.786
G1 X278.561Y37.807
G1 X278.797
G1 X279.019Y37.772
G1 X279.226Y37.728
G1 X279.418Y37.666
G1 X279.591Y37.59
G1 X279.739Y37.501
G1 X279.863Y37.399
G1 X279.963Y37.285
G1 X280.044Y37.155
G1 X280.111Y37.004
G1 X280.165Y36.834
G1 X280.205Y36.643
G1 X279.518Y36.549
G1 X279.483Y36.7
G1 X279.426Y36.834
G1 X279.347Y36.95
G1 X279.246Y37.049
G1 X279.122Y37.127
G1 X278.975Y37.184
G1 X278.805Y37.217
G1 X278.611Y37.229
G1 X278.387Y37.219
G1 X278.196Y37.189
G1 X278.041Y37.138
G1 X277.92Y37.068
G1 X277.829Y36.985
G1 X277.765Y36.895
G1 X277.726Y36.797
G1 X277.713Y36.693
G1 X277.734Y36.564
G1 X277.799Y36.447
G1 X277.909Y36.344
G1 X278.068Y36.26
G1 X278.147Y36.234
G1 X278.276Y36.195
G1 X278.457Y36.144
G1 X279.034Y35.985
G1 X279.323Y35.899
G1 X279.555Y35.822
G1 X279.731Y35.754
G1 X279.87Y35.683
G1 X279.994Y35.598
G1 X280.102Y35.499
G1 X280.193Y35.385
G1 X280.267Y35.256
G1 X280.319Y35.113
G1 X280.351Y34.956
G1 X280.361Y34.783
G1 X280.349Y34.61
G1 X280.31Y34.442
G1 X280.246Y34.279
G1 X280.156Y34.121
G1 X280.042Y33.975
G1 X279.906Y33.846
G1 X279.747Y33.734
G1 X279.565Y33.641
G1 X279.365Y33.566
G1 X279.152Y33.513
G1 X278.927Y33.481
M5
G0 X275.014Y33.467
M3
G1 X274.448
G1 X276.108Y39.389
G1 X276.67
G1 X275.014Y33.467
M5
G0 X273.932Y33.565
M3
G1 X273.233
G1 Y36.178
G1 Y36.374
G1 X273.216Y36.541
G1 X273.195Y36.678
G1 X273.165Y36.785
G1 X273.068Y36.953
G1 X272.917Y37.084
G1 X272.721Y37.169
G1 X272.495Y37.197
G1 X272.285Y37.179
G1 X272.094Y37.125
G1 X271.922Y37.034
G1 X271.768Y36.906
G1 X271.642Y36.739
G1 X271.551Y36.528
G1 X271.497Y36.273
G1 X271.479Y35.975
G1 Y33.565
G1 X270.776
G1 Y36.26
G1 X270.765Y36.48
G1 X270.733Y36.67
G1 X270.679Y36.831
G1 X270.604Y36.963
G1 X270.504Y37.065
G1 X270.378Y37.139
G1 X270.223Y37.183
G1 X270.042Y37.197
G1 X269.896
G1 X269.756Y37.158
G1 X269.622Y37.109
G1 X269.493Y37.041
G1 X269.375Y36.954
G1 X269.275Y36.849
G1 X269.193Y36.725
G1 X269.128Y36.584
G1 X269.078Y36.417
G1 X269.043Y36.217
G1 X269.021Y35.983
G1 Y35.717
G1 Y33.565
G1 X268.311
G1 Y37.713
G1 X268.94
G1 Y37.131
G1 X269.046Y37.276
G1 X269.168Y37.406
G1 X269.305Y37.521
G1 X269.46Y37.621
G1 X269.627Y37.702
G1 X269.806Y37.76
G1 X269.996Y37.795
G1 X270.198Y37.807
G1 X270.418Y37.795
G1 X270.617Y37.759
G1 X270.796Y37.699
G1 X270.954Y37.615
G1 X271.09Y37.51
G1 X271.205Y37.386
G1 X271.298Y37.242
G1 X271.37Y37.08
G1 X271.634Y37.398
G1 X271.936Y37.625
G1 X272.275Y37.761
G1 X272.651Y37.807
G1 X272.942Y37.785
G1 X273.197Y37.721
G1 X273.416Y37.614
G1 X273.6Y37.465
G1 X273.745Y37.271
G1 X273.849Y37.031
G1 X273.911Y36.745
G1 X273.932Y36.412
G1 Y33.565
M5
G0 X267.268Y33.565
M3
G1 X266.569
G1 Y36.178
G1 Y36.374
G1 X266.552Y36.541
G1 X266.531Y36.678
G1 X266.501Y36.785
G1 X266.405Y36.953
G1 X266.253Y37.084
G1 X266.057Y37.169
G1 X265.831Y37.197
G1 X265.621Y37.179
G1 X265.431Y37.125
G1 X265.258Y37.034
G1 X265.104Y36.906
G1 X264.978Y36.739
G1 X264.888Y36.528
G1 X264.833Y36.273
G1 X264.815Y35.975
G1 Y33.565
G1 X264.112
G1 Y36.26
G1 X264.101Y36.48
G1 X264.069Y36.67
G1 X264.016Y36.831
G1 X263.94Y36.963
G1 X263.841Y37.065
G1 X263.714Y37.139
G1 X263.559Y37.183
G1 X263.378Y37.197
G1 X263.232
G1 X263.092Y37.158
G1 X262.958Y37.109
G1 X262.829Y37.041
G1 X262.712Y36.954
G1 X262.612Y36.849
G1 X262.529Y36.725
G1 X262.464Y36.584
G1 X262.414Y36.417
G1 X262.379Y36.217
G1 X262.358Y35.983
G1 Y35.717
G1 Y33.565
G1 X261.647
G1 Y37.713
G1 X262.276
G1 Y37.131
G1 X262.382Y37.276
G1 X262.504Y37.406
G1 X262.642Y37.521
G1 X262.796Y37.621
G1 X262.964Y37.702
G1 X263.142Y37.76
G1 X263.333Y37.795
G1 X263.534Y37.807
G1 X263.754Y37.795
G1 X263.953Y37.759
G1 X264.132Y37.699
G1 X264.29Y37.615
G1 X264.427Y37.51
G1 X264.541Y37.386
G1 X264.635Y37.242
G1 X264.706Y37.08
G1 X264.971Y37.398
G1 X265.272Y37.625
G1 X265.611Y37.761
G1 X265.987Y37.807
G1 X266.278Y37.785
G1 X266.533Y37.721
G1 X266.753Y37.614
G1 X266.936Y37.465
G1 X267.082Y37.271
G1 X267.185Y37.031
G1 X267.248Y36.745
G1 X267.268Y36.412
G1 Y33.565
M5
G0 X258.464Y34.781
M3
G1 X258.323Y34.459
G1 X258.125Y34.162
G1 X257.981Y33.999
G1 X257.824Y33.858
G1 X257.655Y33.738
G1 X257.473Y33.641
G1 X257.279Y33.565
G1 X257.072Y33.51
G1 X256.853Y33.478
G1 X256.621Y33.467
G1 X256.248Y33.494
G1 X255.911Y33.576
G1 X255.61Y33.713
G1 X255.345Y33.904
G1 X255.125Y34.141
G1 X254.957Y34.413
G1 X254.842Y34.721
G1 X254.781Y35.065
G1 X255.519Y35.127
G1 X255.574Y34.874
G1 X255.655Y34.655
G1 X255.764Y34.469
G1 X255.9Y34.316
G1 X256.057Y34.198
G1 X256.23Y34.113
G1 X256.417Y34.062
G1 X256.621Y34.045
G1 X256.865Y34.069
G1 X257.089Y34.141
G1 X257.294Y34.26
G1 X257.48Y34.428
G1 X257.634Y34.635
G1 X257.744Y34.873
G1 X257.81Y35.143
G1 X257.832Y35.443
G1 X257.81Y35.728
G1 X257.747Y35.981
G1 X257.642Y36.203
G1 X257.494Y36.393
G1 X257.312Y36.545
G1 X257.104Y36.653
G1 X256.869Y36.719
G1 X256.609Y36.74
G1 X256.443
G1 X256.286Y36.702
G1 X256.137Y36.653
G1 X255.996Y36.586
G1 X255.751Y36.409
G1 X255.566Y36.186
G1 X254.906Y36.272
G1 X255.46Y39.213
G1 X258.308
G1 Y38.541
G1 X256.023
G1 X255.714Y37.002
G1 X255.975Y37.159
G1 X256.243Y37.272
G1 X256.516Y37.339
G1 X256.796Y37.361
G1 X257.157Y37.329
G1 X257.488Y37.231
G1 X257.79Y37.069
G1 X258.062Y36.842
G1 X258.288Y36.564
G1 X258.449Y36.248
G1 X258.545Y35.896
G1 X258.578Y35.506
G1 X258.549Y35.13
G1 X258.464Y34.781
M5
G0 X253.002Y36.469
M3
G1 X253.14Y36.656
G1 X253.238Y36.877
G1 X253.297Y37.13
G1 X253.316Y37.416
G1 X253.296Y37.703
G1 X253.236Y37.959
G1 X253.135Y38.184
G1 X252.994Y38.377
G1 X252.825Y38.533
G1 X252.639Y38.644
G1 X252.437Y38.71
G1 X252.219Y38.732
G1 X251.992Y38.709
G1 X251.78Y38.637
G1 X251.584Y38.517
G1 X251.402Y38.35
G1 X251.25Y38.144
G1 X251.142Y37.91
G1 X251.076Y37.648
G1 X251.055Y37.357
G1 X251.075Y37.097
G1 X251.137Y36.862
G1 X251.24Y36.653
G1 X251.385Y36.469
G1 X251.559Y36.319
G1 X251.753Y36.212
G1 X251.967Y36.148
G1 X252.199Y36.127
G1 X252.432Y36.148
G1 X252.644Y36.212
G1 X252.834Y36.319
G1 X253.002Y36.469
M5
G0 X253.395Y36.26
M3
G1 X253.279Y36.1
G1 X253.145Y35.956
G1 X252.991Y35.827
G1 X252.818Y35.715
G1 X252.632Y35.623
G1 X252.438Y35.558
G1 X252.236Y35.519
G1 X252.027Y35.506
G1 X251.686Y35.538
G1 X251.371Y35.635
G1 X251.084Y35.796
G1 X250.824Y36.022
G1 X250.609Y36.3
G1 X250.455Y36.619
G1 X250.363Y36.98
G1 X250.332Y37.381
G1 X250.364Y37.795
G1 X250.46Y38.167
G1 X250.621Y38.496
G1 X250.846Y38.783
G1 X251.119Y39.016
G1 X251.424Y39.182
G1 X251.762Y39.281
G1 X252.133Y39.315
G1 X252.406Y39.296
G1 X252.667Y39.239
G1 X252.917Y39.145
G1 X253.154Y39.014
G1 X253.372Y38.847
G1 X253.562Y38.649
G1 X253.723Y38.419
G1 X253.857Y38.156
G1 X253.963Y37.847
G1 X254.038Y37.475
G1 X254.083Y37.041
G1 X254.098Y36.545
G1 X254.083Y36.024
G1 X254.038Y35.559
G1 X253.964Y35.15
G1 X253.859Y34.797
G1 X253.726Y34.491
G1 X253.563Y34.224
G1 X253.371Y33.996
G1 X253.15Y33.807
G1 X252.905Y33.658
G1 X252.639Y33.552
G1 X252.353Y33.488
G1 X252.047Y33.467
G1 X251.726Y33.49
G1 X251.437Y33.56
G1 X251.177Y33.677
G1 X250.949Y33.84
G1 X250.758Y34.045
G1 X250.608Y34.289
G1 X250.502Y34.57
G1 X250.438Y34.889
G1 X251.113Y34.951
G1 X251.166Y34.729
G1 X251.238Y34.54
G1 X251.33Y34.384
G1 X251.441Y34.26
G1 X251.571Y34.166
G1 X251.718Y34.099
G1 X251.882Y34.058
G1 X252.063Y34.045
G1 X252.22
G1 X252.367Y34.082
G1 X252.504Y34.128
G1 X252.631Y34.193
G1 X252.853Y34.367
G1 X253.031Y34.59
G1 X253.175Y34.881
G1 X253.293Y35.26
G1 X253.372Y35.686
G1 X253.398Y36.119
G1 Y36.26
M5
G0 X252.219Y59.045
M3
G1 X252.46Y59.065
G1 X252.679Y59.126
G1 X252.876Y59.227
G1 X253.051Y59.369
G1 X253.194Y59.542
G1 X253.297Y59.737
G1 X253.358Y59.954
G1 X253.379Y60.193
G1 X253.358Y60.436
G1 X253.294Y60.657
G1 X253.189Y60.856
G1 X253.041Y61.033
G1 X252.861Y61.179
G1 X252.661Y61.282
G1 X252.439Y61.345
G1 X252.195Y61.365
G1 X251.958Y61.345
G1 X251.742Y61.283
G1 X251.547Y61.181
G1 X251.373Y61.037
G1 X251.23Y60.863
G1 X251.128Y60.668
G1 X251.067Y60.453
G1 X251.047Y60.217
G1 X251.083Y59.921
G1 X251.189Y59.635
G1 X251.269Y59.502
G1 X251.367Y59.385
G1 X251.481Y59.284
G1 X251.613Y59.199
G1 X251.757Y59.132
G1 X251.905Y59.084
G1 X252.059Y59.055
G1 X252.219Y59.045
M5
G0 X255.756Y59.643
M3
G1 X255.834Y59.512
G1 X256.008Y59.308
G1 X256.202Y59.162
G1 X256.415Y59.074
G1 X256.648Y59.045
G1 X256.881Y59.074
G1 X257.094Y59.162
G1 X257.288Y59.309
G1 X257.462Y59.514
G1 X257.54Y59.646
G1 X257.607Y59.807
G1 X257.664Y59.997
G1 X257.71Y60.217
G1 X257.746Y60.466
G1 X257.772Y60.744
G1 X257.787Y61.052
G1 Y61.389
G1 Y61.727
G1 X257.772Y62.036
G1 X257.746Y62.316
G1 X257.71Y62.565
G1 X257.664Y62.786
G1 X257.607Y62.976
G1 X257.54Y63.137
G1 X257.462Y63.268
G1 X257.287Y63.471
G1 X257.092Y63.616
G1 X256.876Y63.703
G1 X256.64Y63.732
G1 X256.41Y63.707
G1 X256.205Y63.63
G1 X256.023Y63.502
G1 X255.867Y63.322
G1 X255.782Y63.178
G1 X255.708Y63.005
G1 X255.645Y62.805
G1 X255.594Y62.577
G1 X255.555Y62.322
G1 X255.526Y62.038
G1 X255.509Y61.727
G1 Y61.389
G1 Y61.051
G1 X255.524Y60.743
G1 X255.55Y60.464
G1 X255.586Y60.214
G1 X255.632Y59.995
G1 X255.689Y59.804
G1 X255.756Y59.643
M5
G0 X255.099Y59.474
M3
G1 X255.002Y59.723
G1 X254.922Y60
G1 X254.86Y60.305
G1 X254.816Y60.638
G1 X254.79Y60.999
G1 Y61.389
G1 Y61.872
G1 X254.833Y62.305
G1 X254.898Y62.689
G1 X254.99Y63.023
G1 X255.107Y63.315
G1 X255.25Y63.572
G1 X255.417Y63.793
G1 X255.611Y63.979
G1 X255.83Y64.126
G1 X256.076Y64.231
G1 X256.349Y64.294
G1 X256.648Y64.314
G1 X256.871Y64.303
G1 X257.081Y64.268
G1 X257.276Y64.21
G1 X257.457Y64.129
G1 X257.623Y64.026
G1 X257.774Y63.902
G1 X257.91Y63.758
G1 X258.031Y63.594
G1 X258.233Y63.206
G1 X258.386Y62.742
G1 X258.443Y62.469
G1 X258.483Y62.153
G1 X258.507Y61.793
G1 Y61.389
G1 Y60.909
G1 X258.463Y60.478
G1 X258.399Y60.096
G1 X258.308Y59.762
G1 X258.192Y59.47
G1 X258.05Y59.213
G1 X257.882Y58.991
G1 X257.689Y58.805
G1 X257.469Y58.657
G1 X257.223Y58.551
G1 X256.949Y58.488
G1 X256.648Y58.467
G1 X256.256Y58.504
G1 X255.909Y58.615
G1 X255.606Y58.801
G1 X255.347Y59.061
G1 X255.214Y59.253
G1 X255.099Y59.474
M5
G0 X252.584Y62.003
M3
G1 X252.742Y62.083
G1 X252.881Y62.195
G1 X252.995Y62.33
G1 X253.076Y62.48
G1 X253.124Y62.644
G1 X253.141Y62.822
G1 X253.124Y63.008
G1 X253.074Y63.178
G1 X252.99Y63.333
G1 X252.873Y63.473
G1 X252.731Y63.588
G1 X252.573Y63.67
G1 X252.398Y63.72
G1 X252.207Y63.736
G1 X252.014Y63.72
G1 X251.839Y63.672
G1 X251.68Y63.591
G1 X251.539Y63.479
G1 X251.423Y63.343
G1 X251.34Y63.195
G1 X251.29Y63.035
G1 X251.273Y62.861
G1 X251.29Y62.668
G1 X251.339Y62.492
G1 X251.421Y62.335
G1 X251.535Y62.197
G1 X251.676Y62.085
G1 X251.836Y62.004
G1 X252.016Y61.956
G1 X252.215Y61.94
G1 X252.409Y61.955
G1 X252.584Y62.003
M5
G0 X253.02Y61.67
M3
G1 X253.267Y61.571
G1 X253.484Y61.445
G1 X253.669Y61.294
G1 X253.822Y61.115
G1 X253.943Y60.915
G1 X254.029Y60.695
G1 X254.08Y60.458
G1 X254.098Y60.201
G1 X254.065Y59.849
G1 X253.968Y59.525
G1 X253.805Y59.231
G1 X253.578Y58.967
G1 X253.298Y58.748
G1 X252.977Y58.592
G1 X252.614Y58.498
G1 X252.211Y58.467
G1 X251.808Y58.498
G1 X251.445Y58.592
G1 X251.124Y58.749
G1 X250.844Y58.969
G1 X250.616Y59.235
G1 X250.454Y59.533
G1 X250.357Y59.861
G1 X250.324Y60.221
G1 X250.342Y60.489
G1 X250.395Y60.734
G1 X250.484Y60.956
G1 X250.607Y61.156
G1 X250.764Y61.33
G1 X250.951Y61.473
G1 X251.167Y61.587
G1 X251.414Y61.67
G1 X251.209Y61.759
G1 X251.033Y61.864
G1 X250.885Y61.987
G1 X250.766Y62.127
G1 X250.673Y62.283
G1 X250.607Y62.453
G1 X250.568Y62.638
G1 X250.555Y62.838
G1 X250.583Y63.138
G1 X250.667Y63.413
G1 X250.807Y63.663
G1 X251.004Y63.889
G1 X251.247Y64.075
G1 X251.527Y64.208
G1 X251.845Y64.288
G1 X252.199Y64.314
G1 X252.556Y64.287
G1 X252.876Y64.206
G1 X253.159Y64.07
G1 X253.406Y63.879
G1 X253.606Y63.649
G1 X253.749Y63.396
G1 X253.835Y63.119
G1 X253.863Y62.818
G1 X253.85Y62.626
G1 X253.811Y62.446
G1 X253.746Y62.279
G1 X253.654Y62.125
G1 X253.536Y61.986
G1 X253.391Y61.864
G1 X253.219Y61.758
G1 X253.02Y61.67
M5
G0 X261.647Y62.713
M3
G1 X262.276
G1 Y62.131
G1 X262.382Y62.276
G1 X262.504Y62.406
G1 X262.642Y62.521
G1 X262.796Y62.621
G1 X262.964Y62.702
G1 X263.142Y62.76
G1 X263.333Y62.795
G1 X263.534Y62.807
G1 X263.754Y62.795
G1 X263.953Y62.759
G1 X264.132Y62.699
G1 X264.29Y62.615
G1 X264.427Y62.51
G1 X264.541Y62.386
G1 X264.635Y62.242
G1 X264.706Y62.08
G1 X264.971Y62.398
G1 X265.272Y62.625
G1 X265.611Y62.761
G1 X265.987Y62.807
G1 X266.278Y62.785
G1 X266.533Y62.721
G1 X266.753Y62.614
G1 X266.936Y62.465
G1 X267.082Y62.271
G1 X267.185Y62.031
G1 X267.248Y61.745
G1 X267.268Y61.412
G1 Y58.565
G1 X266.569
G1 Y61.178
G1 Y61.374
G1 X266.552Y61.541
G1 X266.531Y61.678
G1 X266.501Y61.785
G1 X266.405Y61.953
G1 X266.253Y62.084
G1 X266.057Y62.169
G1 X265.831Y62.197
G1 X265.621Y62.179
G1 X265.431Y62.125
G1 X265.258Y62.034
G1 X265.104Y61.906
G1 X264.978Y61.739
G1 X264.888Y61.528
G1 X264.833Y61.273
G1 X264.815Y60.975
G1 Y58.565
G1 X264.112
G1 Y61.26
G1 X264.101Y61.48
G1 X264.069Y61.67
G1 X264.016Y61.831
G1 X263.94Y61.963
G1 X263.841Y62.065
G1 X263.714Y62.139
G1 X263.559Y62.183
G1 X263.378Y62.197
G1 X263.232
G1 X263.092Y62.158
G1 X262.958Y62.109
G1 X262.829Y62.041
G1 X262.712Y61.954
G1 X262.612Y61.849
G1 X262.529Y61.725
G1 X262.464Y61.584
G1 X262.414Y61.417
G1 X262.379Y61.217
G1 X262.358Y60.983
G1 Y60.717
G1 Y58.565
G1 X261.647
G1 Y62.713
M5
G0 X268.311Y62.713
M3
G1 X268.94
G1 Y62.131
G1 X269.046Y62.276
G1 X269.168Y62.406
G1 X269.305Y62.521
G1 X269.46Y62.621
G1 X269.627Y62.702
G1 X269.806Y62.76
G1 X269.996Y62.795
G1 X270.198Y62.807
G1 X270.418Y62.795
G1 X270.617Y62.759
G1 X270.796Y62.699
G1 X270.954Y62.615
G1 X271.09Y62.51
G1 X271.205Y62.386
G1 X271.298Y62.242
G1 X271.37Y62.08
G1 X271.634Y62.398
G1 X271.936Y62.625
G1 X272.275Y62.761
G1 X272.651Y62.807
G1 X272.942Y62.785
G1 X273.197Y62.721
G1 X273.416Y62.614
G1 X273.6Y62.465
G1 X273.745Y62.271
G1 X273.849Y62.031
G1 X273.911Y61.745
G1 X273.932Y61.412
G1 Y58.565
G1 X273.233
G1 Y61.178
G1 Y61.374
G1 X273.216Y61.541
G1 X273.195Y61.678
G1 X273.165Y61.785
G1 X273.068Y61.953
G1 X272.917Y62.084
G1 X272.721Y62.169
G1 X272.495Y62.197
G1 X272.285Y62.179
G1 X272.094Y62.125
G1 X271.922Y62.034
G1 X271.768Y61.906
G1 X271.642Y61.739
G1 X271.551Y61.528
G1 X271.497Y61.273
G1 X271.479Y60.975
G1 Y58.565
G1 X270.776
G1 Y61.26
G1 X270.765Y61.48
G1 X270.733Y61.67
G1 X270.679Y61.831
G1 X270.604Y61.963
G1 X270.504Y62.065
G1 X270.378Y62.139
G1 X270.223Y62.183
G1 X270.042Y62.197
G1 X269.896
G1 X269.756Y62.158
G1 X269.622Y62.109
G1 X269.493Y62.041
G1 X269.375Y61.954
G1 X269.275Y61.849
G1 X269.193Y61.725
G1 X269.128Y61.584
G1 X269.078Y61.417
G1 X269.043Y61.217
G1 X269.021Y60.983
G1 Y60.717
G1 Y58.565
G1 X268.311
G1 Y62.713
M5
G0 X276.108Y64.389
M3
G1 X276.67
G1 X275.014Y58.467
G1 X274.448
G1 X276.108Y64.389
M5
G0 X277.7Y62.629
M3
G1 X277.953Y62.723
G1 X278.247Y62.786
G1 X278.561Y62.807
G1 X278.797
G1 X279.019Y62.772
G1 X279.226Y62.728
G1 X279.418Y62.666
G1 X279.591Y62.59
G1 X279.739Y62.501
G1 X279.863Y62.399
G1 X279.963Y62.285
G1 X280.044Y62.155
G1 X280.111Y62.004
G1 X280.165Y61.834
G1 X280.205Y61.643
G1 X279.518Y61.549
G1 X279.483Y61.7
G1 X279.426Y61.834
G1 X279.347Y61.95
G1 X279.246Y62.049
G1 X279.122Y62.127
G1 X278.975Y62.184
G1 X278.805Y62.217
G1 X278.611Y62.229
G1 X278.387Y62.219
G1 X278.196Y62.189
G1 X278.041Y62.138
G1 X277.92Y62.068
G1 X277.829Y61.985
G1 X277.765Y61.895
G1 X277.726Y61.797
G1 X277.713Y61.693
G1 X277.734Y61.564
G1 X277.799Y61.447
G1 X277.909Y61.344
G1 X278.068Y61.26
G1 X278.147Y61.234
G1 X278.276Y61.195
G1 X278.457Y61.144
G1 X279.034Y60.985
G1 X279.323Y60.899
G1 X279.555Y60.822
G1 X279.731Y60.754
G1 X279.87Y60.683
G1 X279.994Y60.598
G1 X280.102Y60.499
G1 X280.193Y60.385
G1 X280.267Y60.256
G1 X280.319Y60.113
G1 X280.351Y59.956
G1 X280.361Y59.783
G1 X280.349Y59.61
G1 X280.31Y59.442
G1 X280.246Y59.279
G1 X280.156Y59.121
G1 X280.042Y58.975
G1 X279.906Y58.846
G1 X279.747Y58.734
G1 X279.565Y58.641
G1 X279.365Y58.566
G1 X279.152Y58.513
G1 X278.927Y58.481
G1 X278.69Y58.471
G1 X278.309Y58.492
G1 X277.977Y58.555
G1 X277.693Y58.66
G1 X277.457Y58.807
G1 X277.264Y58.995
G1 X277.11Y59.224
G1 X276.994Y59.493
G1 X276.916Y59.803
G1 X277.611Y59.912
G1 X277.654Y59.715
G1 X277.722Y59.543
G1 X277.817Y59.395
G1 X277.938Y59.272
G1 X278.085Y59.174
G1 X278.258Y59.105
G1 X278.459Y59.063
G1 X278.686Y59.049
G1 X278.912Y59.061
G1 X279.108Y59.098
G1 X279.272Y59.16
G1 X279.404Y59.246
G1 X279.507Y59.349
G1 X279.58Y59.46
G1 X279.624Y59.58
G1 X279.639Y59.709
G1 X279.626Y59.822
G1 X279.587Y59.922
G1 X279.522Y60.009
G1 X279.432Y60.084
G1 X279.333Y60.134
G1 X279.18Y60.19
G1 X278.973Y60.253
G1 X278.356Y60.417
G1 X278.058Y60.504
G1 X277.82Y60.586
G1 X277.641Y60.66
G1 X277.5Y60.738
G1 X277.378Y60.83
G1 X277.274Y60.936
G1 X277.188Y61.055
G1 X277.12Y61.184
G1 X277.072Y61.32
G1 X277.043Y61.462
G1 Y61.611
G1 X277.065Y61.878
G1 X277.16Y62.125
G1 X277.31Y62.341
G1 X277.506Y62.518
G1 X277.7Y62.629
M5
G0 X278.69Y83.471
M3
G1 X278.309Y83.492
G1 X277.977Y83.555
G1 X277.693Y83.66
G1 X277.457Y83.807
G1 X277.264Y83.995
G1 X277.11Y84.224
G1 X276.994Y84.493
G1 X276.916Y84.803
G1 X277.611Y84.912
G1 X277.654Y84.715
G1 X277.722Y84.543
G1 X277.817Y84.395
G1 X277.938Y84.272
G1 X278.085Y84.174
G1 X278.258Y84.105
G1 X278.459Y84.063
G1 X278.686Y84.049
G1 X278.912Y84.061
G1 X279.108Y84.098
G1 X279.272Y84.16
G1 X279.404Y84.246
G1 X279.507Y84.349
G1 X279.58Y84.46
G1 X279.624Y84.58
G1 X279.639Y84.709
G1 X279.626Y84.822
G1 X279.587Y84.922
G1 X279.522Y85.009
G1 X279.432Y85.084
G1 X279.333Y85.134
G1 X279.18Y85.19
G1 X278.973Y85.253
G1 X278.356Y85.417
G1 X278.058Y85.504
G1 X277.82Y85.586
G1 X277.641Y85.66
G1 X277.5Y85.738
G1 X277.378Y85.83
G1 X277.274Y85.936
G1 X277.188Y86.055
G1 X277.12Y86.184
G1 X277.072Y86.32
G1 X277.043Y86.462
G1 Y86.611
G1 X277.065Y86.878
G1 X277.16Y87.125
G1 X277.31Y87.341
G1 X277.506Y87.518
G1 X277.7Y87.629
G1 X277.953Y87.723
G1 X278.247Y87.786
G1 X278.561Y87.807
G1 X278.797
G1 X279.019Y87.772
G1 X279.226Y87.728
G1 X279.418Y87.666
G1 X279.591Y87.59
G1 X279.739Y87.501
G1 X279.863Y87.399
G1 X279.963Y87.285
G1 X280.044Y87.155
G1 X280.111Y87.004
G1 X280.165Y86.834
G1 X280.205Y86.643
G1 X279.518Y86.549
G1 X279.483Y86.7
G1 X279.426Y86.834
G1 X279.347Y86.95
G1 X279.246Y87.049
G1 X279.122Y87.127
G1 X278.975Y87.184
G1 X278.805Y87.217
G1 X278.611Y87.229
G1 X278.387Y87.219
G1 X278.196Y87.189
G1 X278.041Y87.138
G1 X277.92Y87.068
G1 X277.829Y86.985
G1 X277.765Y86.895
G1 X277.726Y86.797
G1 X277.713Y86.693
G1 X277.734Y86.564
G1 X277.799Y86.447
G1 X277.909Y86.344
G1 X278.068Y86.26
G1 X278.147Y86.234
G1 X278.276Y86.195
G1 X278.457Y86.144
G1 X279.034Y85.985
G1 X279.323Y85.899
G1 X279.555Y85.822
G1 X279.731Y85.754
G1 X279.87Y85.683
G1 X279.994Y85.598
G1 X280.102Y85.499
G1 X280.193Y85.385
G1 X280.267Y85.256
G1 X280.319Y85.113
G1 X280.351Y84.956
G1 X280.361Y84.783
G1 X280.349Y84.61
G1 X280.31Y84.442
G1 X280.246Y84.279
G1 X280.156Y84.121
G1 X280.042Y83.975
G1 X279.906Y83.846
G1 X279.747Y83.734
G1 X279.565Y83.641
G1 X279.365Y83.566
G1 X279.152Y83.513
G1 X278.927Y83.481
G1 X278.69Y83.471
M5
G0 X275.014Y83.467
M3
G1 X274.448
G1 X276.108Y89.389
G1 X276.67
G1 X275.014Y83.467
M5
G0 X273.932Y83.564
M3
G1 X273.233
G1 Y86.178
G1 Y86.374
G1 X273.216Y86.541
G1 X273.195Y86.678
G1 X273.165Y86.785
G1 X273.068Y86.953
G1 X272.917Y87.084
G1 X272.721Y87.169
G1 X272.495Y87.197
G1 X272.285Y87.179
G1 X272.094Y87.125
G1 X271.922Y87.034
G1 X271.768Y86.906
G1 X271.642Y86.739
G1 X271.551Y86.528
G1 X271.497Y86.273
G1 X271.479Y85.975
G1 Y83.564
G1 X270.776
G1 Y86.26
G1 X270.765Y86.48
G1 X270.733Y86.67
G1 X270.679Y86.831
G1 X270.604Y86.963
G1 X270.504Y87.065
G1 X270.378Y87.139
G1 X270.223Y87.183
G1 X270.042Y87.197
G1 X269.896
G1 X269.756Y87.158
G1 X269.622Y87.109
G1 X269.493Y87.041
G1 X269.375Y86.954
G1 X269.275Y86.849
G1 X269.193Y86.725
G1 X269.128Y86.584
G1 X269.078Y86.417
G1 X269.043Y86.217
G1 X269.021Y85.983
G1 Y85.717
G1 Y83.564
G1 X268.311
G1 Y87.713
G1 X268.94
G1 Y87.131
G1 X269.046Y87.276
G1 X269.168Y87.406
G1 X269.305Y87.521
G1 X269.46Y87.621
G1 X269.627Y87.702
G1 X269.806Y87.76
G1 X269.996Y87.795
G1 X270.198Y87.807
G1 X270.418Y87.795
G1 X270.617Y87.759
G1 X270.796Y87.699
G1 X270.954Y87.615
G1 X271.09Y87.51
G1 X271.205Y87.386
G1 X271.298Y87.242
G1 X271.37Y87.08
G1 X271.634Y87.398
G1 X271.936Y87.625
G1 X272.275Y87.761
G1 X272.651Y87.807
G1 X272.942Y87.785
G1 X273.197Y87.721
G1 X273.416Y87.614
G1 X273.6Y87.465
G1 X273.745Y87.271
G1 X273.849Y87.031
G1 X273.911Y86.745
G1 X273.932Y86.412
G1 Y83.564
M5
G0 X267.268Y83.564
M3
G1 X266.569
G1 Y86.178
G1 Y86.374
G1 X266.552Y86.541
G1 X266.531Y86.678
G1 X266.501Y86.785
G1 X266.405Y86.953
G1 X266.253Y87.084
G1 X266.057Y87.169
G1 X265.831Y87.197
G1 X265.621Y87.179
G1 X265.431Y87.125
G1 X265.258Y87.034
G1 X265.104Y86.906
G1 X264.978Y86.739
G1 X264.888Y86.528
G1 X264.833Y86.273
G1 X264.815Y85.975
G1 Y83.564
G1 X264.112
G1 Y86.26
G1 X264.101Y86.48
G1 X264.069Y86.67
G1 X264.016Y86.831
G1 X263.94Y86.963
G1 X263.841Y87.065
G1 X263.714Y87.139
G1 X263.559Y87.183
G1 X263.378Y87.197
G1 X263.232
G1 X263.092Y87.158
G1 X262.958Y87.109
G1 X262.829Y87.041
G1 X262.712Y86.954
G1 X262.612Y86.849
G1 X262.529Y86.725
G1 X262.464Y86.584
G1 X262.414Y86.417
G1 X262.379Y86.217
G1 X262.358Y85.983
G1 Y85.717
G1 Y83.564
G1 X261.647
G1 Y87.713
G1 X262.276
G1 Y87.131
G1 X262.382Y87.276
G1 X262.504Y87.406
G1 X262.642Y87.521
G1 X262.796Y87.621
G1 X262.964Y87.702
G1 X263.142Y87.76
G1 X263.333Y87.795
G1 X263.534Y87.807
G1 X263.754Y87.795
G1 X263.953Y87.759
G1 X264.132Y87.699
G1 X264.29Y87.615
G1 X264.427Y87.51
G1 X264.541Y87.386
G1 X264.635Y87.242
G1 X264.706Y87.08
G1 X264.971Y87.398
G1 X265.272Y87.625
G1 X265.611Y87.761
G1 X265.987Y87.807
G1 X266.278Y87.785
G1 X266.533Y87.721
G1 X266.753Y87.614
G1 X266.936Y87.465
G1 X267.082Y87.271
G1 X267.185Y87.031
G1 X267.248Y86.745
G1 X267.268Y86.412
G1 Y83.564
M5
G0 X258.464Y84.781
M3
G1 X258.323Y84.459
G1 X258.125Y84.162
G1 X257.981Y83.999
G1 X257.824Y83.858
G1 X257.655Y83.738
G1 X257.473Y83.641
G1 X257.279Y83.565
G1 X257.072Y83.51
G1 X256.853Y83.478
G1 X256.621Y83.467
G1 X256.248Y83.494
G1 X255.911Y83.576
G1 X255.61Y83.713
G1 X255.345Y83.904
G1 X255.125Y84.141
G1 X254.957Y84.413
G1 X254.842Y84.721
G1 X254.781Y85.064
G1 X255.519Y85.127
G1 X255.574Y84.874
G1 X255.655Y84.655
G1 X255.764Y84.469
G1 X255.9Y84.316
G1 X256.057Y84.198
G1 X256.23Y84.113
G1 X256.417Y84.062
G1 X256.621Y84.045
G1 X256.865Y84.069
G1 X257.089Y84.141
G1 X257.294Y84.26
G1 X257.48Y84.428
G1 X257.634Y84.635
G1 X257.744Y84.873
G1 X257.81Y85.143
G1 X257.832Y85.443
G1 X257.81Y85.728
G1 X257.747Y85.981
G1 X257.642Y86.203
G1 X257.494Y86.393
G1 X257.312Y86.545
G1 X257.104Y86.653
G1 X256.869Y86.719
G1 X256.609Y86.74
G1 X256.443
G1 X256.286Y86.702
G1 X256.137Y86.653
G1 X255.996Y86.586
G1 X255.751Y86.409
G1 X255.566Y86.186
G1 X254.906Y86.272
G1 X255.46Y89.213
G1 X258.308
G1 Y88.541
G1 X256.023
G1 X255.714Y87.002
G1 X255.975Y87.159
G1 X256.243Y87.272
G1 X256.516Y87.339
G1 X256.796Y87.361
G1 X257.157Y87.329
G1 X257.488Y87.231
G1 X257.79Y87.069
G1 X258.062Y86.842
G1 X258.288Y86.564
G1 X258.449Y86.248
G1 X258.545Y85.896
G1 X258.578Y85.506
G1 X258.549Y85.13
G1 X258.464Y84.781
M5
G0 X253.343Y85.088
M3
G1 X253.363Y85.381
G1 X253.344Y85.662
G1 X253.284Y85.912
G1 X253.185Y86.13
G1 X253.047Y86.316
G1 X252.878Y86.466
G1 X252.689Y86.573
G1 X252.48Y86.637
G1 X252.25Y86.658
G1 X252.021Y86.637
G1 X251.81Y86.573
G1 X251.616Y86.466
G1 X251.441Y86.316
G1 X251.296Y86.132
G1 X251.192Y85.921
G1 X251.13Y85.684
G1 X251.109Y85.42
G1 X251.119Y85.24
G1 X251.148Y85.064
G1 X251.196Y84.893
G1 X251.264Y84.725
G1 X251.349Y84.569
G1 X251.449Y84.432
G1 X251.564Y84.316
G1 X251.695Y84.219
G1 X251.836Y84.143
G1 X251.979Y84.088
G1 X252.127Y84.056
G1 X252.277Y84.045
G1 X252.492Y84.067
G1 X252.691Y84.135
G1 X252.875Y84.247
G1 X253.043Y84.404
G1 X253.183Y84.6
G1 X253.283Y84.828
G1 X253.343Y85.088
M5
G0 X254.068Y85.159
M3
G1 X254.024Y84.904
G1 X253.951Y84.658
G1 X253.85Y84.422
G1 X253.723Y84.204
G1 X253.574Y84.013
G1 X253.403Y83.85
G1 X253.211Y83.713
G1 X253.001Y83.605
G1 X252.777Y83.528
G1 X252.54Y83.482
G1 X252.289Y83.467
G1 X251.87Y83.507
G1 X251.491Y83.628
G1 X251.153Y83.83
G1 X250.855Y84.113
G1 X250.725Y84.288
G1 X250.613Y84.489
G1 X250.517Y84.716
G1 X250.439Y84.969
G1 X250.379Y85.249
G1 X250.335Y85.554
G1 X250.309Y85.886
G1 Y86.244
G1 Y86.645
G1 X250.339Y87.018
G1 X250.387Y87.362
G1 X250.454Y87.678
G1 X250.54Y87.965
G1 X250.646Y88.225
G1 X250.77Y88.456
G1 X250.914Y88.658
G1 X251.205Y88.945
G1 X251.542Y89.15
G1 X251.926Y89.273
G1 X252.355Y89.314
G1 X252.678Y89.291
G1 X252.97Y89.22
G1 X253.232Y89.101
G1 X253.463Y88.936
G1 X253.657Y88.728
G1 X253.808Y88.484
G1 X253.916Y88.205
G1 X253.98Y87.889
G1 X253.281Y87.834
G1 X253.229Y88.027
G1 X253.168Y88.191
G1 X253.097Y88.328
G1 X253.016Y88.436
G1 X252.865Y88.567
G1 X252.697Y88.661
G1 X252.513Y88.718
G1 X252.313Y88.736
G1 X252.15Y88.725
G1 X251.997Y88.689
G1 X251.855Y88.631
G1 X251.723Y88.549
G1 X251.565Y88.414
G1 X251.426Y88.251
G1 X251.304Y88.06
G1 X251.199Y87.842
G1 X251.115Y87.585
G1 X251.054Y87.278
G1 X251.015Y86.923
G1 X251Y86.518
G1 X251.134Y86.699
G1 X251.282Y86.855
G1 X251.445Y86.986
G1 X251.621Y87.092
G1 X251.807Y87.174
G1 X251.997Y87.232
G1 X252.192Y87.268
G1 X252.391Y87.279
G1 X252.729Y87.247
G1 X253.042Y87.15
G1 X253.328Y86.988
G1 X253.588Y86.762
G1 X253.804Y86.484
G1 X253.958Y86.169
G1 X254.051Y85.815
G1 X254.082Y85.424
G1 X254.068Y85.159
M5
G0 X252.172Y108.467
M3
G1 X251.799Y108.494
G1 X251.462Y108.576
G1 X251.161Y108.713
G1 X250.896Y108.904
G1 X250.676Y109.141
G1 X250.508Y109.413
G1 X250.394Y109.721
G1 X250.332Y110.064
G1 X251.07Y110.127
G1 X251.125Y109.874
G1 X251.207Y109.655
G1 X251.315Y109.469
G1 X251.451Y109.316
G1 X251.608Y109.198
G1 X251.781Y109.113
G1 X251.969Y109.062
G1 X252.172Y109.045
G1 X252.416Y109.069
G1 X252.641Y109.141
G1 X252.846Y109.26
G1 X253.031Y109.428
G1 X253.185Y109.635
G1 X253.295Y109.873
G1 X253.361Y110.143
G1 X253.383Y110.443
G1 X253.362Y110.728
G1 X253.298Y110.981
G1 X253.193Y111.203
G1 X253.045Y111.393
G1 X252.863Y111.545
G1 X252.655Y111.653
G1 X252.421Y111.719
G1 X252.16Y111.74
G1 X251.994
G1 X251.837Y111.702
G1 X251.688Y111.653
G1 X251.547Y111.586
G1 X251.303Y111.409
G1 X251.117Y111.186
G1 X250.457Y111.272
G1 X251.012Y114.213
G1 X253.859
G1 Y113.541
G1 X251.574
G1 X251.266Y112.002
G1 X251.527Y112.159
G1 X251.794Y112.272
G1 X252.068Y112.339
G1 X252.348Y112.361
G1 X252.708Y112.329
G1 X253.039Y112.231
G1 X253.341Y112.069
G1 X253.613Y111.842
G1 X253.839Y111.564
G1 X254Y111.248
G1 X254.097Y110.896
G1 X254.129Y110.506
G1 X254.101Y110.13
G1 X254.016Y109.781
G1 X253.874Y109.459
G1 X253.676Y109.162
G1 X253.532Y108.999
G1 X253.375Y108.858
G1 X253.206Y108.738
G1 X253.024Y108.641
G1 X252.83Y108.565
G1 X252.623Y108.51
G1 X252.404Y108.478
G1 X252.172Y108.467
M5
G0 X255.834Y109.512
M3
G1 X256.008Y109.308
G1 X256.202Y109.162
G1 X256.415Y109.074
G1 X256.648Y109.045
G1 X256.881Y109.074
G1 X257.094Y109.162
G1 X257.288Y109.309
G1 X257.462Y109.514
G1 X257.54Y109.646
G1 X257.607Y109.807
G1 X257.664Y109.997
G1 X257.71Y110.217
G1 X257.746Y110.466
G1 X257.772Y110.744
G1 X257.787Y111.052
G1 Y111.389
G1 Y111.727
G1 X257.772Y112.036
G1 X257.746Y112.316
G1 X257.71Y112.565
G1 X257.664Y112.786
G1 X257.607Y112.976
G1 X257.54Y113.137
G1 X257.462Y113.268
G1 X257.287Y113.471
G1 X257.092Y113.616
G1 X256.876Y113.703
G1 X256.64Y113.732
G1 X256.41Y113.707
G1 X256.205Y113.63
G1 X256.023Y113.502
G1 X255.867Y113.322
G1 X255.782Y113.178
G1 X255.708Y113.005
G1 X255.645Y112.805
G1 X255.594Y112.577
G1 X255.555Y112.322
G1 X255.526Y112.038
G1 X255.509Y111.727
G1 Y111.389
G1 Y111.051
G1 X255.524Y110.743
G1 X255.55Y110.464
G1 X255.586Y110.214
G1 X255.632Y109.995
G1 X255.689Y109.804
G1 X255.756Y109.643
G1 X255.834Y109.512
M5
G0 X255.214Y109.253
M3
G1 X255.099Y109.474
G1 X255.002Y109.723
G1 X254.922Y110
G1 X254.86Y110.305
G1 X254.816Y110.638
G1 X254.79Y110.999
G1 Y111.389
G1 Y111.872
G1 X254.833Y112.305
G1 X254.898Y112.689
G1 X254.99Y113.023
G1 X255.107Y113.315
G1 X255.25Y113.572
G1 X255.417Y113.793
G1 X255.611Y113.979
G1 X255.83Y114.126
G1 X256.076Y114.231
G1 X256.349Y114.294
G1 X256.648Y114.314
G1 X256.871Y114.303
G1 X257.081Y114.268
G1 X257.276Y114.21
G1 X257.457Y114.129
G1 X257.623Y114.026
G1 X257.774Y113.902
G1 X257.91Y113.758
G1 X258.031Y113.594
G1 X258.233Y113.206
G1 X258.386Y112.742
G1 X258.443Y112.469
G1 X258.483Y112.153
G1 X258.507Y111.793
G1 Y111.389
G1 Y110.909
G1 X258.463Y110.478
G1 X258.399Y110.096
G1 X258.308Y109.762
G1 X258.192Y109.47
G1 X258.05Y109.213
G1 X257.882Y108.991
G1 X257.689Y108.805
G1 X257.469Y108.657
G1 X257.223Y108.551
G1 X256.949Y108.488
G1 X256.648Y108.467
G1 X256.256Y108.504
G1 X255.909Y108.615
G1 X255.606Y108.801
G1 X255.347Y109.061
G1 X255.214Y109.253
M5
G0 X261.647Y108.564
M3
G1 Y112.713
G1 X262.276
G1 Y112.131
G1 X262.382Y112.276
G1 X262.504Y112.406
G1 X262.642Y112.521
G1 X262.796Y112.621
G1 X262.964Y112.702
G1 X263.142Y112.76
G1 X263.333Y112.795
G1 X263.534Y112.807
G1 X263.754Y112.795
G1 X263.953Y112.759
G1 X264.132Y112.699
G1 X264.29Y112.615
G1 X264.427Y112.51
G1 X264.541Y112.386
G1 X264.635Y112.242
G1 X264.706Y112.08
G1 X264.971Y112.398
G1 X265.272Y112.625
G1 X265.611Y112.761
G1 X265.987Y112.807
G1 X266.278Y112.785
G1 X266.533Y112.721
G1 X266.753Y112.614
G1 X266.936Y112.465
G1 X267.082Y112.271
G1 X267.185Y112.031
G1 X267.248Y111.745
G1 X267.268Y111.412
G1 Y108.564
G1 X266.569
G1 Y111.178
G1 Y111.374
G1 X266.552Y111.541
G1 X266.531Y111.678
G1 X266.501Y111.785
G1 X266.405Y111.953
G1 X266.253Y112.084
G1 X266.057Y112.169
G1 X265.831Y112.197
G1 X265.621Y112.179
G1 X265.431Y112.125
G1 X265.258Y112.034
G1 X265.104Y111.906
G1 X264.978Y111.739
G1 X264.888Y111.528
G1 X264.833Y111.273
G1 X264.815Y110.975
G1 Y108.564
G1 X264.112
G1 Y111.26
G1 X264.101Y111.48
G1 X264.069Y111.67
G1 X264.016Y111.831
G1 X263.94Y111.963
G1 X263.841Y112.065
G1 X263.714Y112.139
G1 X263.559Y112.183
G1 X263.378Y112.197
G1 X263.232
G1 X263.092Y112.158
G1 X262.958Y112.109
G1 X262.829Y112.041
G1 X262.712Y111.954
G1 X262.612Y111.849
G1 X262.529Y111.725
G1 X262.464Y111.584
G1 X262.414Y111.417
G1 X262.379Y111.217
G1 X262.358Y110.983
G1 Y110.717
G1 Y108.564
G1 X261.647
M5
G0 X268.311Y108.564
M3
G1 Y112.713
G1 X268.94
G1 Y112.131
G1 X269.046Y112.276
G1 X269.168Y112.406
G1 X269.305Y112.521
G1 X269.46Y112.621
G1 X269.627Y112.702
G1 X269.806Y112.76
G1 X269.996Y112.795
G1 X270.198Y112.807
G1 X270.418Y112.795
G1 X270.617Y112.759
G1 X270.796Y112.699
G1 X270.954Y112.615
G1 X271.09Y112.51
G1 X271.205Y112.386
G1 X271.298Y112.242
G1 X271.37Y112.08
G1 X271.634Y112.398
G1 X271.936Y112.625
G1 X272.275Y112.761
G1 X272.651Y112.807
G1 X272.942Y112.785
G1 X273.197Y112.721
G1 X273.416Y112.614
G1 X273.6Y112.465
G1 X273.745Y112.271
G1 X273.849Y112.031
G1 X273.911Y111.745
G1 X273.932Y111.412
G1 Y108.564
G1 X273.233
G1 Y111.178
G1 Y111.374
G1 X273.216Y111.541
G1 X273.195Y111.678
G1 X273.165Y111.785
G1 X273.068Y111.953
G1 X272.917Y112.084
G1 X272.721Y112.169
G1 X272.495Y112.197
G1 X272.285Y112.179
G1 X272.094Y112.125
G1 X271.922Y112.034
G1 X271.768Y111.906
G1 X271.642Y111.739
G1 X271.551Y111.528
G1 X271.497Y111.273
G1 X271.479Y110.975
G1 Y108.564
G1 X270.776
G1 Y111.26
G1 X270.765Y111.48
G1 X270.733Y111.67
G1 X270.679Y111.831
G1 X270.604Y111.963
G1 X270.504Y112.065
G1 X270.378Y112.139
G1 X270.223Y112.183
G1 X270.042Y112.197
G1 X269.896
G1 X269.756Y112.158
G1 X269.622Y112.109
G1 X269.493Y112.041
G1 X269.375Y111.954
G1 X269.275Y111.849
G1 X269.193Y111.725
G1 X269.128Y111.584
G1 X269.078Y111.417
G1 X269.043Y111.217
G1 X269.021Y110.983
G1 Y110.717
G1 Y108.564
G1 X268.311
M5
G0 X274.448Y108.467
M3
G1 X276.108Y114.389
G1 X276.67
G1 X275.014Y108.467
G1 X274.448
M5
G0 X277.11Y109.224
M3
G1 X276.994Y109.493
G1 X276.916Y109.803
G1 X277.611Y109.912
G1 X277.654Y109.715
G1 X277.722Y109.543
G1 X277.817Y109.395
G1 X277.938Y109.272
G1 X278.085Y109.174
G1 X278.258Y109.105
G1 X278.459Y109.063
G1 X278.686Y109.049
G1 X278.912Y109.061
G1 X279.108Y109.098
G1 X279.272Y109.16
G1 X279.404Y109.246
G1 X279.507Y109.349
G1 X279.58Y109.46
G1 X279.624Y109.58
G1 X279.639Y109.709
G1 X279.626Y109.822
G1 X279.587Y109.922
G1 X279.522Y110.009
G1 X279.432Y110.084
G1 X279.333Y110.134
G1 X279.18Y110.19
G1 X278.973Y110.253
G1 X278.356Y110.417
G1 X278.058Y110.504
G1 X277.82Y110.586
G1 X277.641Y110.66
G1 X277.5Y110.738
G1 X277.378Y110.83
G1 X277.274Y110.936
G1 X277.188Y111.055
G1 X277.12Y111.184
G1 X277.072Y111.32
G1 X277.043Y111.462
G1 Y111.611
G1 X277.065Y111.878
G1 X277.16Y112.125
G1 X277.31Y112.341
G1 X277.506Y112.518
G1 X277.7Y112.629
G1 X277.953Y112.723
G1 X278.247Y112.786
G1 X278.561Y112.807
G1 X278.797
G1 X279.019Y112.772
G1 X279.226Y112.728
G1 X279.418Y112.666
G1 X279.591Y112.59
G1 X279.739Y112.501
G1 X279.863Y112.399
G1 X279.963Y112.285
G1 X280.044Y112.155
G1 X280.111Y112.004
G1 X280.165Y111.834
G1 X280.205Y111.643
G1 X279.518Y111.549
G1 X279.483Y111.7
G1 X279.426Y111.834
G1 X279.347Y111.95
G1 X279.246Y112.049
G1 X279.122Y112.127
G1 X278.975Y112.184
G1 X278.805Y112.217
G1 X278.611Y112.229
G1 X278.387Y112.219
G1 X278.196Y112.189
G1 X278.041Y112.138
G1 X277.92Y112.068
G1 X277.829Y111.985
G1 X277.765Y111.895
G1 X277.726Y111.797
G1 X277.713Y111.693
G1 X277.734Y111.564
G1 X277.799Y111.447
G1 X277.909Y111.344
G1 X278.068Y111.26
G1 X278.147Y111.234
G1 X278.276Y111.195
G1 X278.457Y111.144
G1 X279.034Y110.985
G1 X279.323Y110.899
G1 X279.555Y110.822
G1 X279.731Y110.754
G1 X279.87Y110.683
G1 X279.994Y110.598
G1 X280.102Y110.499
G1 X280.193Y110.385
G1 X280.267Y110.256
G1 X280.319Y110.113
G1 X280.351Y109.956
G1 X280.361Y109.783
G1 X280.349Y109.61
G1 X280.31Y109.442
G1 X280.246Y109.279
G1 X280.156Y109.121
G1 X280.042Y108.975
G1 X279.906Y108.846
G1 X279.747Y108.734
G1 X279.565Y108.641
G1 X279.365Y108.566
G1 X279.152Y108.513
G1 X278.927Y108.481
G1 X278.69Y108.471
G1 X278.309Y108.492
G1 X277.977Y108.555
G1 X277.693Y108.66
G1 X277.457Y108.807
G1 X277.264Y108.995
G1 X277.11Y109.224
M5
G0 X278.69Y133.471
M3
G1 X278.309Y133.492
G1 X277.977Y133.555
G1 X277.693Y133.66
G1 X277.457Y133.807
G1 X277.264Y133.995
G1 X277.11Y134.224
G1 X276.994Y134.493
G1 X276.916Y134.803
G1 X277.611Y134.912
G1 X277.654Y134.715
G1 X277.722Y134.543
G1 X277.817Y134.395
G1 X277.938Y134.272
G1 X278.085Y134.174
G1 X278.258Y134.105
G1 X278.459Y134.063
G1 X278.686Y134.049
G1 X278.912Y134.061
G1 X279.108Y134.098
G1 X279.272Y134.16
G1 X279.404Y134.246
G1 X279.507Y134.349
G1 X279.58Y134.46
G1 X279.624Y134.58
G1 X279.639Y134.709
G1 X279.626Y134.822
G1 X279.587Y134.922
G1 X279.522Y135.009
G1 X279.432Y135.084
G1 X279.333Y135.134
G1 X279.18Y135.19
G1 X278.973Y135.253
G1 X278.356Y135.417
G1 X278.058Y135.504
G1 X277.82Y135.586
G1 X277.641Y135.66
G1 X277.5Y135.738
G1 X277.378Y135.83
G1 X277.274Y135.936
G1 X277.188Y136.055
G1 X277.12Y136.184
G1 X277.072Y136.32
G1 X277.043Y136.462
G1 Y136.611
G1 X277.065Y136.878
G1 X277.16Y137.125
G1 X277.31Y137.341
G1 X277.506Y137.518
G1 X277.7Y137.629
G1 X277.953Y137.723
G1 X278.247Y137.786
G1 X278.561Y137.807
G1 X278.797
G1 X279.019Y137.772
G1 X279.226Y137.728
G1 X279.418Y137.666
G1 X279.591Y137.59
G1 X279.739Y137.501
G1 X279.863Y137.399
G1 X279.963Y137.285
G1 X280.044Y137.155
G1 X280.111Y137.004
G1 X280.165Y136.834
G1 X280.205Y136.643
G1 X279.518Y136.549
G1 X279.483Y136.7
G1 X279.426Y136.834
G1 X279.347Y136.95
G1 X279.246Y137.049
G1 X279.122Y137.127
G1 X278.975Y137.184
G1 X278.805Y137.217
G1 X278.611Y137.229
G1 X278.387Y137.219
G1 X278.196Y137.189
G1 X278.041Y137.138
G1 X277.92Y137.068
G1 X277.829Y136.985
G1 X277.765Y136.895
G1 X277.726Y136.797
G1 X277.713Y136.693
G1 X277.734Y136.564
G1 X277.799Y136.447
G1 X277.909Y136.344
G1 X278.068Y136.26
G1 X278.147Y136.234
G1 X278.276Y136.195
G1 X278.457Y136.144
G1 X279.034Y135.985
G1 X279.323Y135.899
G1 X279.555Y135.822
G1 X279.731Y135.754
G1 X279.87Y135.683
G1 X279.994Y135.598
G1 X280.102Y135.499
G1 X280.193Y135.385
G1 X280.267Y135.256
G1 X280.319Y135.113
G1 X280.351Y134.956
G1 X280.361Y134.783
G1 X280.349Y134.61
G1 X280.31Y134.442
G1 X280.246Y134.279
G1 X280.156Y134.121
G1 X280.042Y133.975
G1 X279.906Y133.846
G1 X279.747Y133.734
G1 X279.565Y133.641
G1 X279.365Y133.566
G1 X279.152Y133.513
G1 X278.927Y133.481
G1 X278.69Y133.471
M5
G0 X275.014Y133.467
M3
G1 X274.448
G1 X276.108Y139.389
G1 X276.67
G1 X275.014Y133.467
M5
G0 X273.932Y133.564
M3
G1 X273.233
G1 Y136.178
G1 Y136.374
G1 X273.216Y136.541
G1 X273.195Y136.678
G1 X273.165Y136.785
G1 X273.068Y136.953
G1 X272.917Y137.084
G1 X272.721Y137.169
G1 X272.495Y137.197
G1 X272.285Y137.179
G1 X272.094Y137.125
G1 X271.922Y137.034
G1 X271.768Y136.906
G1 X271.642Y136.739
G1 X271.551Y136.528
G1 X271.497Y136.273
G1 X271.479Y135.975
G1 Y133.564
G1 X270.776
G1 Y136.26
G1 X270.765Y136.48
G1 X270.733Y136.67
G1 X270.679Y136.831
G1 X270.604Y136.963
G1 X270.504Y137.065
G1 X270.378Y137.139
G1 X270.223Y137.183
G1 X270.042Y137.197
G1 X269.896
G1 X269.756Y137.158
G1 X269.622Y137.109
G1 X269.493Y137.041
G1 X269.375Y136.954
G1 X269.275Y136.849
G1 X269.193Y136.725
G1 X269.128Y136.584
G1 X269.078Y136.417
G1 X269.043Y136.217
G1 X269.021Y135.983
G1 Y135.717
G1 Y133.564
G1 X268.311
G1 Y137.713
G1 X268.94
G1 Y137.131
G1 X269.046Y137.276
G1 X269.168Y137.406
G1 X269.305Y137.521
G1 X269.46Y137.621
G1 X269.627Y137.702
G1 X269.806Y137.76
G1 X269.996Y137.795
G1 X270.198Y137.807
G1 X270.418Y137.795
G1 X270.617Y137.759
G1 X270.796Y137.699
G1 X270.954Y137.615
G1 X271.09Y137.51
G1 X271.205Y137.386
G1 X271.298Y137.242
G1 X271.37Y137.08
G1 X271.634Y137.398
G1 X271.936Y137.625
G1 X272.275Y137.761
G1 X272.651Y137.807
G1 X272.942Y137.785
G1 X273.197Y137.721
G1 X273.416Y137.614
G1 X273.6Y137.465
G1 X273.745Y137.271
G1 X273.849Y137.031
G1 X273.911Y136.745
G1 X273.932Y136.412
G1 Y133.564
M5
G0 X267.268Y133.564
M3
G1 X266.569
G1 Y136.178
G1 Y136.374
G1 X266.552Y136.541
G1 X266.531Y136.678
G1 X266.501Y136.785
G1 X266.405Y136.953
G1 X266.253Y137.084
G1 X266.057Y137.169
G1 X265.831Y137.197
G1 X265.621Y137.179
G1 X265.431Y137.125
G1 X265.258Y137.034
G1 X265.104Y136.906
G1 X264.978Y136.739
G1 X264.888Y136.528
G1 X264.833Y136.273
G1 X264.815Y135.975
G1 Y133.564
G1 X264.112
G1 Y136.26
G1 X264.101Y136.48
G1 X264.069Y136.67
G1 X264.016Y136.831
G1 X263.94Y136.963
G1 X263.841Y137.065
G1 X263.714Y137.139
G1 X263.559Y137.183
G1 X263.378Y137.197
G1 X263.232
G1 X263.092Y137.158
G1 X262.958Y137.109
G1 X262.829Y137.041
G1 X262.712Y136.954
G1 X262.612Y136.849
G1 X262.529Y136.725
G1 X262.464Y136.584
G1 X262.414Y136.417
G1 X262.379Y136.217
G1 X262.358Y135.983
G1 Y135.717
G1 Y133.564
G1 X261.647
G1 Y137.713
G1 X262.276
G1 Y137.131
G1 X262.382Y137.276
G1 X262.504Y137.406
G1 X262.642Y137.521
G1 X262.796Y137.621
G1 X262.964Y137.702
G1 X263.142Y137.76
G1 X263.333Y137.795
G1 X263.534Y137.807
G1 X263.754Y137.795
G1 X263.953Y137.759
G1 X264.132Y137.699
G1 X264.29Y137.615
G1 X264.427Y137.51
G1 X264.541Y137.386
G1 X264.635Y137.242
G1 X264.706Y137.08
G1 X264.971Y137.398
G1 X265.272Y137.625
G1 X265.611Y137.761
G1 X265.987Y137.807
G1 X266.278Y137.785
G1 X266.533Y137.721
G1 X266.753Y137.614
G1 X266.936Y137.465
G1 X267.082Y137.271
G1 X267.185Y137.031
G1 X267.248Y136.745
G1 X267.268Y136.412
G1 Y133.564
M5
G0 X258.464Y134.781
M3
G1 X258.323Y134.459
G1 X258.125Y134.162
G1 X257.981Y133.999
G1 X257.824Y133.858
G1 X257.655Y133.738
G1 X257.473Y133.641
G1 X257.279Y133.565
G1 X257.072Y133.51
G1 X256.853Y133.478
G1 X256.621Y133.467
G1 X256.248Y133.494
G1 X255.911Y133.576
G1 X255.61Y133.713
G1 X255.345Y133.904
G1 X255.125Y134.141
G1 X254.957Y134.413
G1 X254.842Y134.721
G1 X254.781Y135.064
G1 X255.519Y135.127
G1 X255.574Y134.874
G1 X255.655Y134.655
G1 X255.764Y134.469
G1 X255.9Y134.316
G1 X256.057Y134.198
G1 X256.23Y134.113
G1 X256.417Y134.062
G1 X256.621Y134.045
G1 X256.865Y134.069
G1 X257.089Y134.141
G1 X257.294Y134.26
G1 X257.48Y134.428
G1 X257.634Y134.635
G1 X257.744Y134.873
G1 X257.81Y135.143
G1 X257.832Y135.443
G1 X257.81Y135.728
G1 X257.747Y135.981
G1 X257.642Y136.203
G1 X257.494Y136.393
G1 X257.312Y136.545
G1 X257.104Y136.653
G1 X256.869Y136.719
G1 X256.609Y136.74
G1 X256.443
G1 X256.286Y136.702
G1 X256.137Y136.653
G1 X255.996Y136.586
G1 X255.751Y136.409
G1 X255.566Y136.186
G1 X254.906Y136.272
G1 X255.46Y139.213
G1 X258.308
G1 Y138.541
G1 X256.023
G1 X255.714Y137.002
G1 X255.975Y137.159
G1 X256.243Y137.272
G1 X256.516Y137.339
G1 X256.796Y137.361
G1 X257.157Y137.329
G1 X257.488Y137.231
G1 X257.79Y137.069
G1 X258.062Y136.842
G1 X258.288Y136.564
G1 X258.449Y136.248
G1 X258.545Y135.896
G1 X258.578Y135.506
G1 X258.549Y135.13
G1 X258.464Y134.781
M5
G0 X254.052Y134.895
M3
G1 X253.949Y134.563
G1 X253.778Y134.259
G1 X253.539Y133.984
G1 X253.248Y133.756
G1 X252.92Y133.593
G1 X252.556Y133.496
G1 X252.156Y133.463
G1 X251.795Y133.491
G1 X251.466Y133.575
G1 X251.169Y133.716
G1 X250.904Y133.912
G1 X250.682Y134.153
G1 X250.513Y134.428
G1 X250.398Y134.735
G1 X250.336Y135.076
G1 X251.039Y135.17
G1 X251.11Y134.892
G1 X251.203Y134.656
G1 X251.316Y134.461
G1 X251.451Y134.309
G1 X251.605Y134.193
G1 X251.774Y134.111
G1 X251.959Y134.061
G1 X252.16Y134.045
G1 X252.399Y134.066
G1 X252.618Y134.131
G1 X252.818Y134.238
G1 X252.998Y134.389
G1 X253.148Y134.571
G1 X253.254Y134.773
G1 X253.318Y134.997
G1 X253.34Y135.24
G1 X253.32Y135.472
G1 X253.261Y135.682
G1 X253.162Y135.871
G1 X253.023Y136.039
G1 X252.854Y136.177
G1 X252.664Y136.275
G1 X252.452Y136.334
G1 X252.219Y136.354
G1 X251.995Y136.334
G1 X251.723Y136.275
G1 X251.801Y136.893
G1 X251.864
G1 X251.914
G1 X252.133
G1 X252.341Y136.943
G1 X252.537Y137.017
G1 X252.723Y137.119
G1 X252.88Y137.252
G1 X252.992Y137.417
G1 X253.06Y137.614
G1 X253.082Y137.842
G1 X253.066Y138.027
G1 X253.017Y138.195
G1 X252.935Y138.347
G1 X252.82Y138.482
G1 X252.68Y138.594
G1 X252.521Y138.673
G1 X252.342Y138.721
G1 X252.145Y138.736
G1 X251.948Y138.72
G1 X251.769Y138.672
G1 X251.606Y138.591
G1 X251.461Y138.479
G1 X251.336Y138.334
G1 X251.236Y138.156
G1 X251.161Y137.947
G1 X251.109Y137.705
G1 X250.406Y137.83
G1 X250.491Y138.164
G1 X250.617Y138.458
G1 X250.784Y138.712
G1 X250.992Y138.926
G1 X251.235Y139.096
G1 X251.505Y139.217
G1 X251.803Y139.29
G1 X252.129Y139.314
G1 X252.359Y139.302
G1 X252.579Y139.264
G1 X252.79Y139.201
G1 X252.992Y139.113
G1 X253.178Y139.004
G1 X253.34Y138.876
G1 X253.48Y138.729
G1 X253.596Y138.564
G1 X253.687Y138.388
G1 X253.752Y138.206
G1 X253.792Y138.019
G1 X253.805Y137.826
G1 X253.792Y137.645
G1 X253.755Y137.472
G1 X253.693Y137.307
G1 X253.605Y137.15
G1 X253.494Y137.006
G1 X253.358Y136.877
G1 X253.199Y136.764
G1 X253.016Y136.666
G1 X253.255Y136.592
G1 X253.467Y136.486
G1 X253.65Y136.349
G1 X253.805Y136.18
G1 X253.928Y135.984
G1 X254.016Y135.764
G1 X254.068Y135.522
G1 X254.086Y135.256
G1 X254.052Y134.895
M5
G0 X254.027Y158.564
M3
G1 X250.242
G1 X250.259Y158.814
G1 X250.324Y159.053
G1 X250.407Y159.245
G1 X250.512Y159.437
G1 X250.639Y159.626
G1 X250.787Y159.814
G1 X250.964Y160.009
G1 X251.176Y160.219
G1 X251.424Y160.443
G1 X252.136Y161.045
G1 X252.489Y161.368
G1 X252.767Y161.651
G1 X252.969Y161.895
G1 X253.112Y162.115
G1 X253.215Y162.33
G1 X253.276Y162.538
G1 X253.297Y162.74
G1 X253.278Y162.941
G1 X253.222Y163.126
G1 X253.129Y163.294
G1 X252.998Y163.445
G1 X252.837Y163.571
G1 X252.654Y163.661
G1 X252.448Y163.715
G1 X252.219Y163.732
G1 X251.978Y163.713
G1 X251.762Y163.656
G1 X251.571Y163.561
G1 X251.406Y163.428
G1 X251.273Y163.261
G1 X251.177Y163.064
G1 X251.118Y162.839
G1 X251.098Y162.584
G1 X250.375Y162.658
G1 X250.438Y163.038
G1 X250.552Y163.371
G1 X250.717Y163.655
G1 X250.934Y163.891
G1 X251.197Y164.076
G1 X251.501Y164.209
G1 X251.847Y164.288
G1 X252.234Y164.314
G1 X252.625Y164.286
G1 X252.973Y164.2
G1 X253.277Y164.057
G1 X253.539Y163.857
G1 X253.749Y163.615
G1 X253.899Y163.346
G1 X253.99Y163.049
G1 X254.02Y162.725
G1 X253.984Y162.384
G1 X253.879Y162.049
G1 X253.692Y161.708
G1 X253.412Y161.35
G1 X253.222Y161.149
G1 X252.978Y160.914
G1 X252.68Y160.645
G1 X252.328Y160.342
G1 X252.04Y160.098
G1 X251.809Y159.896
G1 X251.634Y159.737
G1 X251.516Y159.621
G1 X251.352Y159.431
G1 X251.219Y159.24
G1 X254.027
G1 Y158.564
M5
G0 X256.008Y159.308
M3
G1 X256.202Y159.162
G1 X256.415Y159.074
G1 X256.648Y159.045
G1 X256.881Y159.074
G1 X257.094Y159.162
G1 X257.288Y159.309
G1 X257.462Y159.514
G1 X257.54Y159.646
G1 X257.607Y159.807
G1 X257.664Y159.997
G1 X257.71Y160.217
G1 X257.746Y160.466
G1 X257.772Y160.744
G1 X257.787Y161.052
G1 Y161.389
G1 Y161.727
G1 X257.772Y162.036
G1 X257.746Y162.316
G1 X257.71Y162.565
G1 X257.664Y162.786
G1 X257.607Y162.976
G1 X257.54Y163.137
G1 X257.462Y163.268
G1 X257.287Y163.471
G1 X257.092Y163.616
G1 X256.876Y163.703
G1 X256.64Y163.732
G1 X256.41Y163.707
G1 X256.205Y163.63
G1 X256.023Y163.502
G1 X255.867Y163.322
G1 X255.782Y163.178
G1 X255.708Y163.005
G1 X255.645Y162.805
G1 X255.594Y162.577
G1 X255.555Y162.322
G1 X255.526Y162.038
G1 X255.509Y161.727
G1 Y161.389
G1 Y161.051
G1 X255.524Y160.743
G1 X255.55Y160.464
G1 X255.586Y160.214
G1 X255.632Y159.995
G1 X255.689Y159.804
G1 X255.756Y159.643
G1 X255.834Y159.512
G1 X256.008Y159.308
M5
G0 X255.347Y159.061
M3
G1 X255.214Y159.253
G1 X255.099Y159.474
G1 X255.002Y159.723
G1 X254.922Y160
G1 X254.86Y160.305
G1 X254.816Y160.638
G1 X254.79Y160.999
G1 Y161.389
G1 Y161.872
G1 X254.833Y162.305
G1 X254.898Y162.689
G1 X254.99Y163.023
G1 X255.107Y163.315
G1 X255.25Y163.572
G1 X255.417Y163.793
G1 X255.611Y163.979
G1 X255.83Y164.126
G1 X256.076Y164.231
G1 X256.349Y164.294
G1 X256.648Y164.314
G1 X256.871Y164.303
G1 X257.081Y164.268
G1 X257.276Y164.21
G1 X257.457Y164.129
G1 X257.623Y164.026
G1 X257.774Y163.902
G1 X257.91Y163.758
G1 X258.031Y163.594
G1 X258.233Y163.206
G1 X258.386Y162.742
G1 X258.443Y162.469
G1 X258.483Y162.153
G1 X258.507Y161.793
G1 Y161.389
G1 Y160.909
G1 X258.463Y160.478
G1 X258.399Y160.096
G1 X258.308Y159.762
G1 X258.192Y159.47
G1 X258.05Y159.213
G1 X257.882Y158.991
G1 X257.689Y158.805
G1 X257.469Y158.657
G1 X257.223Y158.551
G1 X256.949Y158.488
G1 X256.648Y158.467
G1 X256.256Y158.504
G1 X255.909Y158.615
G1 X255.606Y158.801
G1 X255.347Y159.061
M5
G0 X261.647Y158.564
M3
G1 Y162.713
G1 X262.276
G1 Y162.131
G1 X262.382Y162.276
G1 X262.504Y162.406
G1 X262.642Y162.521
G1 X262.796Y162.621
G1 X262.964Y162.702
G1 X263.142Y162.76
G1 X263.333Y162.795
G1 X263.534Y162.807
G1 X263.754Y162.795
G1 X263.953Y162.759
G1 X264.132Y162.699
G1 X264.29Y162.615
G1 X264.427Y162.51
G1 X264.541Y162.386
G1 X264.635Y162.242
G1 X264.706Y162.08
G1 X264.971Y162.398
G1 X265.272Y162.625
G1 X265.611Y162.761
G1 X265.987Y162.807
G1 X266.278Y162.785
G1 X266.533Y162.721
G1 X266.753Y162.614
G1 X266.936Y162.465
G1 X267.082Y162.271
G1 X267.185Y162.031
G1 X267.248Y161.745
G1 X267.268Y161.412
G1 Y158.564
G1 X266.569
G1 Y161.178
G1 Y161.374
G1 X266.552Y161.541
G1 X266.531Y161.678
G1 X266.501Y161.785
G1 X266.405Y161.953
G1 X266.253Y162.084
G1 X266.057Y162.169
G1 X265.831Y162.197
G1 X265.621Y162.179
G1 X265.431Y162.125
G1 X265.258Y162.034
G1 X265.104Y161.906
G1 X264.978Y161.739
G1 X264.888Y161.528
G1 X264.833Y161.273
G1 X264.815Y160.975
G1 Y158.564
G1 X264.112
G1 Y161.26
G1 X264.101Y161.48
G1 X264.069Y161.67
G1 X264.016Y161.831
G1 X263.94Y161.963
G1 X263.841Y162.065
G1 X263.714Y162.139
G1 X263.559Y162.183
G1 X263.378Y162.197
G1 X263.232
G1 X263.092Y162.158
G1 X262.958Y162.109
G1 X262.829Y162.041
G1 X262.712Y161.954
G1 X262.612Y161.849
G1 X262.529Y161.725
G1 X262.464Y161.584
G1 X262.414Y161.417
G1 X262.379Y161.217
G1 X262.358Y160.983
G1 Y160.717
G1 Y158.564
G1 X261.647
M5
G0 X268.311Y158.564
M3
G1 Y162.713
G1 X268.94
G1 Y162.131
G1 X269.046Y162.276
G1 X269.168Y162.406
G1 X269.305Y162.521
G1 X269.46Y162.621
G1 X269.627Y162.702
G1 X269.806Y162.76
G1 X269.996Y162.795
G1 X270.198Y162.807
G1 X270.418Y162.795
G1 X270.617Y162.759
G1 X270.796Y162.699
G1 X270.954Y162.615
G1 X271.09Y162.51
G1 X271.205Y162.386
G1 X271.298Y162.242
G1 X271.37Y162.08
G1 X271.634Y162.398
G1 X271.936Y162.625
G1 X272.275Y162.761
G1 X272.651Y162.807
G1 X272.942Y162.785
G1 X273.197Y162.721
G1 X273.416Y162.614
G1 X273.6Y162.465
G1 X273.745Y162.271
G1 X273.849Y162.031
G1 X273.911Y161.745
G1 X273.932Y161.412
G1 Y158.564
G1 X273.233
G1 Y161.178
G1 Y161.374
G1 X273.216Y161.541
G1 X273.195Y161.678
G1 X273.165Y161.785
G1 X273.068Y161.953
G1 X272.917Y162.084
G1 X272.721Y162.169
G1 X272.495Y162.197
G1 X272.285Y162.179
G1 X272.094Y162.125
G1 X271.922Y162.034
G1 X271.768Y161.906
G1 X271.642Y161.739
G1 X271.551Y161.528
G1 X271.497Y161.273
G1 X271.479Y160.975
G1 Y158.564
G1 X270.776
G1 Y161.26
G1 X270.765Y161.48
G1 X270.733Y161.67
G1 X270.679Y161.831
G1 X270.604Y161.963
G1 X270.504Y162.065
G1 X270.378Y162.139
G1 X270.223Y162.183
G1 X270.042Y162.197
G1 X269.896
G1 X269.756Y162.158
G1 X269.622Y162.109
G1 X269.493Y162.041
G1 X269.375Y161.954
G1 X269.275Y161.849
G1 X269.193Y161.725
G1 X269.128Y161.584
G1 X269.078Y161.417
G1 X269.043Y161.217
G1 X269.021Y160.983
G1 Y160.717
G1 Y158.564
G1 X268.311
M5
G0 X274.448Y158.467
M3
G1 X276.108Y164.389
G1 X276.67
G1 X275.014Y158.467
G1 X274.448
M5
G0 X277.11Y159.224
M3
G1 X276.994Y159.493
G1 X276.916Y159.803
G1 X277.611Y159.912
G1 X277.654Y159.715
G1 X277.722Y159.543
G1 X277.817Y159.395
G1 X277.938Y159.272
G1 X278.085Y159.174
G1 X278.258Y159.105
G1 X278.459Y159.063
G1 X278.686Y159.049
G1 X278.912Y159.061
G1 X279.108Y159.098
G1 X279.272Y159.16
G1 X279.404Y159.246
G1 X279.507Y159.349
G1 X279.58Y159.46
G1 X279.624Y159.58
G1 X279.639Y159.709
G1 X279.626Y159.822
G1 X279.587Y159.922
G1 X279.522Y160.009
G1 X279.432Y160.084
G1 X279.333Y160.134
G1 X279.18Y160.19
G1 X278.973Y160.253
G1 X278.356Y160.417
G1 X278.058Y160.504
G1 X277.82Y160.586
G1 X277.641Y160.66
G1 X277.5Y160.738
G1 X277.378Y160.83
G1 X277.274Y160.936
G1 X277.188Y161.055
G1 X277.12Y161.184
G1 X277.072Y161.32
G1 X277.043Y161.462
G1 Y161.611
G1 X277.065Y161.878
G1 X277.16Y162.125
G1 X277.31Y162.341
G1 X277.506Y162.518
G1 X277.7Y162.629
G1 X277.953Y162.723
G1 X278.247Y162.786
G1 X278.561Y162.807
G1 X278.797
G1 X279.019Y162.772
G1 X279.226Y162.728
G1 X279.418Y162.666
G1 X279.591Y162.59
G1 X279.739Y162.501
G1 X279.863Y162.399
G1 X279.963Y162.285
G1 X280.044Y162.155
G1 X280.111Y162.004
G1 X280.165Y161.834
G1 X280.205Y161.643
G1 X279.518Y161.549
G1 X279.483Y161.7
G1 X279.426Y161.834
G1 X279.347Y161.95
G1 X279.246Y162.049
G1 X279.122Y162.127
G1 X278.975Y162.184
G1 X278.805Y162.217
G1 X278.611Y162.229
G1 X278.387Y162.219
G1 X278.196Y162.189
G1 X278.041Y162.138
G1 X277.92Y162.068
G1 X277.829Y161.985
G1 X277.765Y161.895
G1 X277.726Y161.797
G1 X277.713Y161.693
G1 X277.734Y161.564
G1 X277.799Y161.447
G1 X277.909Y161.344
G1 X278.068Y161.26
G1 X278.147Y161.234
G1 X278.276Y161.195
G1 X278.457Y161.144
G1 X279.034Y160.985
G1 X279.323Y160.899
G1 X279.555Y160.822
G1 X279.731Y160.754
G1 X279.87Y160.683
G1 X279.994Y160.598
G1 X280.102Y160.499
G1 X280.193Y160.385
G1 X280.267Y160.256
G1 X280.319Y160.113
G1 X280.351Y159.956
G1 X280.361Y159.783
G1 X280.349Y159.61
G1 X280.31Y159.442
G1 X280.246Y159.279
G1 X280.156Y159.121
G1 X280.042Y158.975
G1 X279.906Y158.846
G1 X279.747Y158.734
G1 X279.565Y158.641
G1 X279.365Y158.566
G1 X279.152Y158.513
G1 X278.927Y158.481
G1 X278.69Y158.471
G1 X278.309Y158.492
G1 X277.977Y158.555
G1 X277.693Y158.66
G1 X277.457Y158.807
G1 X277.264Y158.995
G1 X277.11Y159.224
M5
G0 X274.479Y183.481
M3
G1 X274.241Y183.471
G1 X273.861Y183.492
G1 X273.528Y183.555
G1 X273.244Y183.66
G1 X273.008Y183.807
G1 X272.816Y183.995
G1 X272.661Y184.224
G1 X272.545Y184.493
G1 X272.467Y184.803
G1 X273.163Y184.912
G1 X273.205Y184.715
G1 X273.273Y184.543
G1 X273.368Y184.395
G1 X273.489Y184.272
G1 X273.636Y184.174
G1 X273.81Y184.105
G1 X274.01Y184.063
G1 X274.237Y184.049
G1 X274.463Y184.061
G1 X274.659Y184.098
G1 X274.823Y184.16
G1 X274.956Y184.246
G1 X275.058Y184.349
G1 X275.131Y184.46
G1 X275.175Y184.58
G1 X275.19Y184.709
G1 X275.177Y184.822
G1 X275.138Y184.922
G1 X275.074Y185.009
G1 X274.983Y185.084
G1 X274.884Y185.134
G1 X274.731Y185.19
G1 X274.524Y185.253
G1 X273.907Y185.417
G1 X273.609Y185.504
G1 X273.371Y185.586
G1 X273.192Y185.66
G1 X273.052Y185.738
G1 X272.929Y185.83
G1 X272.825Y185.936
G1 X272.739Y186.055
G1 X272.671Y186.184
G1 X272.623Y186.32
G1 X272.594Y186.462
G1 Y186.611
G1 X272.616Y186.878
G1 X272.711Y187.125
G1 X272.861Y187.341
G1 X273.057Y187.518
G1 X273.251Y187.629
G1 X273.504Y187.723
G1 X273.798Y187.786
G1 X274.112Y187.807
G1 X274.349
G1 X274.57Y187.772
G1 X274.777Y187.728
G1 X274.969Y187.666
G1 X275.142Y187.59
G1 X275.29Y187.501
G1 X275.414Y187.399
G1 X275.514Y187.285
G1 X275.595Y187.155
G1 X275.663Y187.004
G1 X275.716Y186.834
G1 X275.756Y186.643
G1 X275.069Y186.549
G1 X275.034Y186.7
G1 X274.978Y186.834
G1 X274.899Y186.95
G1 X274.797Y187.049
G1 X274.674Y187.127
G1 X274.526Y187.184
G1 X274.356Y187.217
G1 X274.163Y187.229
G1 X273.938Y187.219
G1 X273.748Y187.189
G1 X273.592Y187.138
G1 X273.471Y187.068
G1 X273.381Y186.985
G1 X273.316Y186.895
G1 X273.277Y186.797
G1 X273.264Y186.693
G1 X273.286Y186.564
G1 X273.35Y186.447
G1 X273.461Y186.344
G1 X273.62Y186.26
G1 X273.698Y186.234
G1 X273.828Y186.195
G1 X274.009Y186.144
G1 X274.586Y185.985
G1 X274.874Y185.899
G1 X275.106Y185.822
G1 X275.282Y185.754
G1 X275.421Y185.683
G1 X275.545Y185.598
G1 X275.653Y185.499
G1 X275.745Y185.385
G1 X275.818Y185.256
G1 X275.871Y185.113
G1 X275.902Y184.956
G1 X275.913Y184.783
G1 X275.9Y184.61
G1 X275.861Y184.442
G1 X275.797Y184.279
G1 X275.708Y184.121
G1 X275.594Y183.975
G1 X275.457Y183.846
G1 X275.298Y183.734
G1 X275.116Y183.641
G1 X274.916Y183.566
G1 X274.704Y183.513
G1 X274.479Y183.481
M5
G0 X270.565Y183.467
M3
G1 X269.999
G1 X271.659Y189.389
G1 X272.221
G1 X270.565Y183.467
M5
G0 X269.483Y183.564
M3
G1 X268.784
G1 Y186.178
G1 Y186.374
G1 X268.767Y186.541
G1 X268.746Y186.678
G1 X268.716Y186.785
G1 X268.62Y186.953
G1 X268.468Y187.084
G1 X268.272Y187.169
G1 X268.046Y187.197
G1 X267.836Y187.179
G1 X267.646Y187.125
G1 X267.473Y187.034
G1 X267.319Y186.906
G1 X267.193Y186.739
G1 X267.103Y186.528
G1 X267.048Y186.273
G1 X267.03Y185.975
G1 Y183.564
G1 X266.327
G1 Y186.26
G1 X266.316Y186.48
G1 X266.284Y186.67
G1 X266.23Y186.831
G1 X266.155Y186.963
G1 X266.056Y187.065
G1 X265.929Y187.139
G1 X265.774Y187.183
G1 X265.593Y187.197
G1 X265.447
G1 X265.307Y187.158
G1 X265.173Y187.109
G1 X265.044Y187.041
G1 X264.927Y186.954
G1 X264.827Y186.849
G1 X264.744Y186.725
G1 X264.679Y186.584
G1 X264.629Y186.417
G1 X264.594Y186.217
G1 X264.573Y185.983
G1 Y185.717
G1 Y183.564
G1 X263.862
G1 Y187.713
G1 X264.491
G1 Y187.131
G1 X264.597Y187.276
G1 X264.719Y187.406
G1 X264.857Y187.521
G1 X265.011Y187.621
G1 X265.178Y187.702
G1 X265.357Y187.76
G1 X265.548Y187.795
G1 X265.749Y187.807
G1 X265.969Y187.795
G1 X266.169Y187.759
G1 X266.347Y187.699
G1 X266.505Y187.615
G1 X266.642Y187.51
G1 X266.756Y187.386
G1 X266.85Y187.242
G1 X266.921Y187.08
G1 X267.186Y187.398
G1 X267.487Y187.625
G1 X267.826Y187.761
G1 X268.202Y187.807
G1 X268.493Y187.785
G1 X268.748Y187.721
G1 X268.968Y187.614
G1 X269.151Y187.465
G1 X269.297Y187.271
G1 X269.4Y187.031
G1 X269.463Y186.745
G1 X269.483Y186.412
G1 Y183.564
M5
G0 X262.82Y183.564
M3
G1 X262.12
G1 Y186.178
G1 Y186.374
G1 X262.103Y186.541
G1 X262.082Y186.678
G1 X262.052Y186.785
G1 X261.956Y186.953
G1 X261.804Y187.084
G1 X261.609Y187.169
G1 X261.382Y187.197
G1 X261.173Y187.179
G1 X260.982Y187.125
G1 X260.809Y187.034
G1 X260.656Y186.906
G1 X260.529Y186.739
G1 X260.439Y186.528
G1 X260.385Y186.273
G1 X260.367Y185.975
G1 Y183.564
G1 X259.663
G1 Y186.26
G1 X259.653Y186.48
G1 X259.62Y186.67
G1 X259.567Y186.831
G1 X259.492Y186.963
G1 X259.392Y187.065
G1 X259.265Y187.139
G1 X259.111Y187.183
G1 X258.929Y187.197
G1 X258.783
G1 X258.643Y187.158
G1 X258.509Y187.109
G1 X258.38Y187.041
G1 X258.263Y186.954
G1 X258.163Y186.849
G1 X258.08Y186.725
G1 X258.015Y186.584
G1 X257.965Y186.417
G1 X257.93Y186.217
G1 X257.909Y185.983
G1 Y185.717
G1 Y183.564
G1 X257.199
G1 Y187.713
G1 X257.828
G1 Y187.131
G1 X257.933Y187.276
G1 X258.055Y187.406
G1 X258.193Y187.521
G1 X258.347Y187.621
G1 X258.515Y187.702
G1 X258.694Y187.76
G1 X258.884Y187.795
G1 X259.085Y187.807
G1 X259.305Y187.795
G1 X259.505Y187.759
G1 X259.683Y187.699
G1 X259.841Y187.615
G1 X259.978Y187.51
G1 X260.093Y187.386
G1 X260.186Y187.242
G1 X260.257Y187.08
G1 X260.522Y187.398
G1 X260.824Y187.625
G1 X261.162Y187.761
G1 X261.538Y187.807
G1 X261.829Y187.785
G1 X262.084Y187.721
G1 X262.304Y187.614
G1 X262.488Y187.465
G1 X262.633Y187.271
G1 X262.737Y187.031
G1 X262.799Y186.745
G1 X262.82Y186.412
G1 Y183.564
M5
G0 X254.016Y184.781
M3
G1 X253.874Y184.459
G1 X253.676Y184.162
G1 X253.532Y183.999
G1 X253.375Y183.858
G1 X253.206Y183.738
G1 X253.024Y183.641
G1 X252.83Y183.565
G1 X252.623Y183.51
G1 X252.404Y183.478
G1 X252.172Y183.467
G1 X251.799Y183.494
G1 X251.462Y183.576
G1 X251.161Y183.713
G1 X250.896Y183.904
G1 X250.676Y184.141
G1 X250.508Y184.413
G1 X250.394Y184.721
G1 X250.332Y185.064
G1 X251.07Y185.127
G1 X251.125Y184.874
G1 X251.207Y184.655
G1 X251.315Y184.469
G1 X251.451Y184.316
G1 X251.608Y184.198
G1 X251.781Y184.113
G1 X251.969Y184.062
G1 X252.172Y184.045
G1 X252.416Y184.069
G1 X252.641Y184.141
G1 X252.846Y184.26
G1 X253.031Y184.428
G1 X253.185Y184.635
G1 X253.295Y184.873
G1 X253.361Y185.143
G1 X253.383Y185.443
G1 X253.362Y185.728
G1 X253.298Y185.981
G1 X253.193Y186.203
G1 X253.045Y186.393
G1 X252.863Y186.545
G1 X252.655Y186.653
G1 X252.421Y186.719
G1 X252.16Y186.74
G1 X251.994
G1 X251.837Y186.702
G1 X251.688Y186.653
G1 X251.547Y186.586
G1 X251.303Y186.409
G1 X251.117Y186.186
G1 X250.457Y186.272
G1 X251.012Y189.213
G1 X253.859
G1 Y188.541
G1 X251.574
G1 X251.266Y187.002
G1 X251.527Y187.159
G1 X251.794Y187.272
G1 X252.068Y187.339
G1 X252.348Y187.361
G1 X252.708Y187.329
G1 X253.039Y187.231
G1 X253.341Y187.069
G1 X253.613Y186.842
G1 X253.839Y186.564
G1 X254Y186.248
G1 X254.097Y185.896
G1 X254.129Y185.506
G1 X254.101Y185.13
G1 X254.016Y184.781
M5
G0 X261.077Y208.564
M3
G1 X259.807Y212.713
G1 X260.534
G1 X261.44Y209.428
G1 X261.655Y210.283
G1 X262.315Y212.713
G1 X263.038
G1 X263.659Y210.307
G1 X263.866Y209.514
G1 X264.815Y212.713
G1 X265.499
G1 X264.202Y208.564
G1 X263.471
G1 X262.811Y211.049
G1 X262.651Y211.756
G1 X261.811Y208.564
G1 X261.077
M5
G0 X258.417Y209.447
M3
G1 X258.569Y209.673
G1 X258.678Y209.95
G1 X258.743Y210.28
G1 X258.765Y210.662
G1 X258.743Y211.024
G1 X258.677Y211.338
G1 X258.568Y211.607
G1 X258.415Y211.828
G1 X258.23Y212.002
G1 X258.023Y212.126
G1 X257.795Y212.2
G1 X257.546Y212.225
G1 X257.293Y212.2
G1 X257.064Y212.126
G1 X256.856Y212.003
G1 X256.671Y211.83
G1 X256.519Y211.608
G1 X256.41Y211.335
G1 X256.345Y211.012
G1 X256.323Y210.639
G1 X256.345Y210.265
G1 X256.41Y209.942
G1 X256.519Y209.669
G1 X256.671Y209.445
G1 X256.856Y209.272
G1 X257.064Y209.148
G1 X257.293Y209.074
G1 X257.546Y209.049
G1 X257.797Y209.074
G1 X258.025Y209.148
G1 X258.232Y209.273
G1 X258.417Y209.447
M5
G0 X259.113Y209.221
M3
G1 X258.952Y209.03
G1 X258.764Y208.864
G1 X258.548Y208.725
G1 X258.313Y208.614
G1 X258.068Y208.534
G1 X257.812Y208.487
G1 X257.546Y208.471
G1 X257.131Y208.506
G1 X256.758Y208.61
G1 X256.427Y208.785
G1 X256.138Y209.029
G1 X255.903Y209.339
G1 X255.735Y209.711
G1 X255.634Y210.144
G1 X255.601Y210.639
G1 Y210.917
G1 X255.641Y211.178
G1 X255.691Y211.419
G1 X255.761Y211.642
G1 X255.851Y211.846
G1 X255.961Y212.031
G1 X256.091Y212.198
G1 X256.241Y212.346
G1 X256.523Y212.547
G1 X256.835Y212.691
G1 X257.176Y212.778
G1 X257.546Y212.807
G1 X257.954Y212.772
G1 X258.323Y212.667
G1 X258.653Y212.491
G1 X258.944Y212.246
G1 X259.182Y211.939
G1 X259.352Y211.579
G1 X259.453Y211.165
G1 X259.487Y210.697
G1 X259.472Y210.318
G1 X259.427Y209.982
G1 X259.352Y209.688
G1 X259.247Y209.438
G1 X259.113Y209.221
M5
G0 X253.898Y211.842
M3
G1 X254.033Y211.992
G1 X254.13Y212.171
G1 X254.188Y212.377
G1 X254.207Y212.611
G1 X254.196Y212.785
G1 X254.162Y212.945
G1 X254.105Y213.092
G1 X254.025Y213.227
G1 X253.927Y213.344
G1 X253.815Y213.439
G1 X253.688Y213.513
G1 X253.547Y213.564
G1 X253.431Y213.587
G1 X253.274Y213.603
G1 X253.077
G1 X252.84Y213.615
G1 X251.375
G1 Y211.568
G1 X252.855
G1 X253.196Y211.585
G1 X253.483Y211.637
G1 X253.718Y211.722
G1 X253.898Y211.842
M5
G0 X254.727Y211.665
M3
G1 X254.523Y211.398
G1 X254.396Y211.28
G1 X254.244Y211.177
G1 X254.069Y211.09
G1 X253.871Y211.019
G1 X253.649Y210.964
G1 X253.404Y210.924
G1 X253.136Y210.901
G1 X252.844
G1 X251.375
G1 Y208.564
G1 X250.617
G1 Y214.291
G1 X252.777
G1 X253.046
G1 X253.28Y214.277
G1 X253.481Y214.26
G1 X253.648Y214.236
G1 X253.851Y214.193
G1 X254.036Y214.134
G1 X254.204Y214.059
G1 X254.355Y213.969
G1 X254.491Y213.86
G1 X254.613Y213.732
G1 X254.721Y213.584
G1 X254.814Y213.416
G1 X254.891Y213.234
G1 X254.945Y213.043
G1 X254.977Y212.843
G1 X254.988Y212.635
G1 X254.959Y212.284
G1 X254.872Y211.961
G1 X254.727Y211.665
M5
G0 X244.081Y210.365
M3
G1 X244.026Y210.539
G1 X243.949Y210.672
G1 X243.856Y210.77
G1 X243.752Y210.84
G1 X243.637Y210.882
G1 X243.511Y210.897
G1 X243.384Y210.882
G1 X243.269Y210.84
G1 X243.165Y210.769
G1 X243.072Y210.67
G1 X242.996Y210.533
G1 X242.942Y210.349
G1 X242.909Y210.117
G1 X242.898Y209.838
G1 X242.909Y209.585
G1 X242.942Y209.371
G1 X242.997Y209.198
G1 X243.074Y209.064
G1 X243.167Y208.965
G1 X243.27Y208.895
G1 X243.384Y208.852
G1 X243.508Y208.838
G1 X243.636Y208.852
G1 X243.753Y208.895
G1 X243.858Y208.965
G1 X243.951Y209.064
G1 X244.027Y209.201
G1 X244.081Y209.385
G1 X244.114Y209.615
G1 X244.125Y209.893
G1 X244.114Y210.149
G1 X244.081Y210.365
M5
G0 X244.65Y210.521
M3
G1 X244.716Y210.216
G1 X244.738Y209.865
G1 X244.716Y209.523
G1 X244.649Y209.222
G1 X244.537Y208.963
G1 X244.381Y208.746
G1 X244.191Y208.574
G1 X243.981Y208.452
G1 X243.749Y208.378
G1 X243.496Y208.354
G1 X243.247Y208.378
G1 X243.02Y208.451
G1 X242.814Y208.572
G1 X242.631Y208.742
G1 X242.479Y208.961
G1 X242.371Y209.228
G1 X242.306Y209.544
G1 X242.285Y209.908
G1 X242.304Y210.205
G1 X242.362Y210.478
G1 X242.458Y210.727
G1 X242.593Y210.953
G1 X242.765Y211.14
G1 X242.972Y211.274
G1 X243.215Y211.354
G1 X243.492Y211.381
G1 X243.75Y211.357
G1 X243.985Y211.285
G1 X244.196Y211.164
G1 X244.384Y210.996
G1 X244.539Y210.781
G1 X244.65Y210.521
M5
G0 X240.244Y212.072
M3
G1 X240.32Y212.209
G1 X240.374Y212.393
G1 X240.407Y212.623
G1 X240.418Y212.9
G1 X240.407Y213.157
G1 X240.374Y213.373
G1 X240.319Y213.547
G1 X240.242Y213.68
G1 X240.149Y213.778
G1 X240.045Y213.848
G1 X239.93Y213.89
G1 X239.804Y213.904
G1 X239.679Y213.89
G1 X239.565Y213.848
G1 X239.461Y213.777
G1 X239.369Y213.678
G1 X239.293Y213.541
G1 X239.238Y213.357
G1 X239.206Y213.125
G1 X239.195Y212.846
G1 X239.206Y212.591
G1 X239.239Y212.377
G1 X239.294Y212.203
G1 X239.371Y212.07
G1 X239.464Y211.972
G1 X239.567Y211.902
G1 X239.681Y211.86
G1 X239.804Y211.846
G1 X239.931Y211.86
G1 X240.047Y211.902
G1 X240.151Y211.973
G1 X240.244Y212.072
M5
G0 X240.83Y211.971
M3
G1 X240.674Y211.754
G1 X240.484Y211.582
G1 X240.275Y211.46
G1 X240.044Y211.386
G1 X239.793Y211.361
G1 X239.544Y211.386
G1 X239.317Y211.458
G1 X239.111Y211.579
G1 X238.927Y211.748
G1 X238.776Y211.966
G1 X238.668Y212.233
G1 X238.603Y212.55
G1 X238.582Y212.916
G1 X238.601Y213.211
G1 X238.659Y213.483
G1 X238.755Y213.733
G1 X238.89Y213.959
G1 X239.062Y214.147
G1 X239.268Y214.281
G1 X239.509Y214.362
G1 X239.785Y214.389
G1 X240.043Y214.365
G1 X240.278Y214.293
G1 X240.489Y214.172
G1 X240.677Y214.004
G1 X240.832Y213.789
G1 X240.943Y213.529
G1 X241.009Y213.224
G1 X241.031Y212.873
G1 X241.009Y212.531
G1 X240.942Y212.23
G1 X240.83Y211.971
M5
G0 X236.991Y212.036
M3
G1 X236.965Y212.316
G1 X236.929Y212.565
G1 X236.883Y212.786
G1 X236.826Y212.976
G1 X236.759Y213.137
G1 X236.682Y213.268
G1 X236.507Y213.471
G1 X236.311Y213.616
G1 X236.095Y213.703
G1 X235.86Y213.732
G1 X235.63Y213.707
G1 X235.424Y213.63
G1 X235.243Y213.502
G1 X235.086Y213.322
G1 X235.001Y213.178
G1 X234.927Y213.005
G1 X234.865Y212.805
G1 X234.814Y212.577
G1 X234.774Y212.322
G1 X234.746Y212.038
G1 X234.728Y211.727
G1 Y211.389
G1 Y211.051
G1 X234.743Y210.743
G1 X234.769Y210.464
G1 X234.805Y210.214
G1 X234.852Y209.995
G1 X234.908Y209.804
G1 X234.976Y209.643
G1 X235.053Y209.512
G1 X235.228Y209.308
G1 X235.422Y209.162
G1 X235.635Y209.074
G1 X235.867Y209.045
G1 X236.1Y209.074
G1 X236.313Y209.162
G1 X236.507Y209.309
G1 X236.682Y209.514
G1 X236.759Y209.646
G1 X236.826Y209.807
G1 X236.883Y209.997
G1 X236.929Y210.217
G1 X236.965Y210.466
G1 X236.991Y210.744
G1 X237.007Y211.052
G1 Y211.389
G1 Y211.727
G1 X236.991Y212.036
M5
G0 X237.702Y212.153
M3
G1 X237.726Y211.793
G1 Y211.389
G1 Y210.909
G1 X237.683Y210.478
G1 X237.618Y210.096
G1 X237.527Y209.762
G1 X237.411Y209.47
G1 X237.269Y209.213
G1 X237.102Y208.991
G1 X236.908Y208.805
G1 X236.689Y208.657
G1 X236.442Y208.551
G1 X236.168Y208.488
G1 X235.867Y208.467
G1 X235.475Y208.504
G1 X235.128Y208.615
G1 X234.825Y208.801
G1 X234.567Y209.061
G1 X234.434Y209.253
G1 X234.319Y209.474
G1 X234.221Y209.723
G1 X234.142Y210
G1 X234.08Y210.305
G1 X234.036Y210.638
G1 X234.009Y210.999
G1 Y211.389
G1 Y211.872
G1 X234.052Y212.305
G1 X234.118Y212.689
G1 X234.209Y213.023
G1 X234.326Y213.315
G1 X234.469Y213.572
G1 X234.637Y213.793
G1 X234.83Y213.979
G1 X235.05Y214.126
G1 X235.296Y214.231
G1 X235.568Y214.294
G1 X235.867Y214.314
G1 X236.091Y214.303
G1 X236.3Y214.268
G1 X236.495Y214.21
G1 X236.676Y214.129
G1 X236.842Y214.026
G1 X236.993Y213.902
G1 X237.129Y213.758
G1 X237.25Y213.594
G1 X237.452Y213.206
G1 X237.606Y212.742
G1 X237.662Y212.469
G1 X237.702Y212.153
M5
G0 X232.542Y212.036
M3
G1 X232.517Y212.316
G1 X232.481Y212.565
G1 X232.434Y212.786
G1 X232.377Y212.976
G1 X232.31Y213.137
G1 X232.233Y213.268
G1 X232.058Y213.471
G1 X231.862Y213.616
G1 X231.647Y213.703
G1 X231.411Y213.732
G1 X231.181Y213.707
G1 X230.975Y213.63
G1 X230.794Y213.502
G1 X230.637Y213.322
G1 X230.552Y213.178
G1 X230.478Y213.005
G1 X230.416Y212.805
G1 X230.365Y212.577
G1 X230.325Y212.322
G1 X230.297Y212.038
G1 X230.28Y211.727
G1 Y211.389
G1 Y211.051
G1 X230.295Y210.743
G1 X230.32Y210.464
G1 X230.357Y210.214
G1 X230.403Y209.995
G1 X230.46Y209.804
G1 X230.527Y209.643
G1 X230.604Y209.512
G1 X230.779Y209.308
G1 X230.973Y209.162
G1 X231.186Y209.074
G1 X231.419Y209.045
G1 X231.651Y209.074
G1 X231.864Y209.162
G1 X232.058Y209.309
G1 X232.233Y209.514
G1 X232.31Y209.646
G1 X232.377Y209.807
G1 X232.434Y209.997
G1 X232.481Y210.217
G1 X232.517Y210.466
G1 X232.542Y210.744
G1 X232.558Y211.052
G1 Y211.389
G1 Y211.727
G1 X232.542Y212.036
M5
G0 X233.254Y212.153
M3
G1 X233.278Y211.793
G1 Y211.389
G1 Y210.909
G1 X233.234Y210.478
G1 X233.169Y210.096
G1 X233.079Y209.762
G1 X232.962Y209.47
G1 X232.82Y209.213
G1 X232.653Y208.991
G1 X232.46Y208.805
G1 X232.24Y208.657
G1 X231.993Y208.551
G1 X231.719Y208.488
G1 X231.419Y208.467
G1 X231.027Y208.504
G1 X230.679Y208.615
G1 X230.376Y208.801
G1 X230.118Y209.061
G1 X229.985Y209.253
G1 X229.87Y209.474
G1 X229.773Y209.723
G1 X229.693Y210
G1 X229.631Y210.305
G1 X229.587Y210.638
G1 X229.56Y210.999
G1 Y211.389
G1 Y211.872
G1 X229.604Y212.305
G1 X229.669Y212.689
G1 X229.76Y213.023
G1 X229.878Y213.315
G1 X230.02Y213.572
G1 X230.188Y213.793
G1 X230.381Y213.979
G1 X230.601Y214.126
G1 X230.847Y214.231
G1 X231.119Y214.294
G1 X231.419Y214.314
G1 X231.642Y214.303
G1 X231.851Y214.268
G1 X232.046Y214.21
G1 X232.227Y214.129
G1 X232.393Y214.026
G1 X232.545Y213.902
G1 X232.681Y213.758
G1 X232.801Y213.594
G1 X233.004Y213.206
G1 X233.157Y212.742
G1 X233.213Y212.469
G1 X233.254Y212.153
M5
G0 X227.048Y213.045
M3
G1 X226.755Y212.803
G1 X226.382Y212.561
G1 X225.991Y212.349
G1 X225.642Y212.197
G1 Y212.877
G1 X225.927Y213.023
G1 X226.194Y213.184
G1 X226.443Y213.359
G1 X226.673Y213.549
G1 X226.878Y213.745
G1 X227.05Y213.938
G1 X227.19Y214.127
G1 X227.298Y214.314
G1 X227.751
G1 Y208.564
G1 X227.048
G1 Y213.045
M5
G0 X216.801Y210.539
M3
G1 X216.725Y210.672
G1 X216.631Y210.77
G1 X216.527Y210.84
G1 X216.413Y210.882
G1 X216.287Y210.897
G1 X216.16Y210.882
G1 X216.044Y210.84
G1 X215.94Y210.769
G1 X215.848Y210.67
G1 X215.772Y210.533
G1 X215.717Y210.349
G1 X215.685Y210.117
G1 X215.674Y209.838
G1 X215.685Y209.585
G1 X215.718Y209.371
G1 X215.773Y209.198
G1 X215.85Y209.064
G1 X215.943Y208.965
G1 X216.046Y208.895
G1 X216.159Y208.852
G1 X216.283Y208.838
G1 X216.412Y208.852
G1 X216.529Y208.895
G1 X216.634Y208.965
G1 X216.726Y209.064
G1 X216.803Y209.201
G1 X216.857Y209.385
G1 X216.889Y209.615
G1 X216.9Y209.893
G1 X216.889Y210.149
G1 X216.856Y210.365
G1 X216.801Y210.539
M5
G0 X217.425Y210.521
M3
G1 X217.492Y210.216
G1 X217.514Y209.865
G1 X217.491Y209.523
G1 X217.424Y209.222
G1 X217.313Y208.963
G1 X217.156Y208.746
G1 X216.967Y208.574
G1 X216.756Y208.452
G1 X216.524Y208.378
G1 X216.271Y208.354
G1 X216.023Y208.378
G1 X215.795Y208.451
G1 X215.59Y208.572
G1 X215.406Y208.742
G1 X215.255Y208.961
G1 X215.147Y209.228
G1 X215.082Y209.544
G1 X215.06Y209.908
G1 X215.08Y210.205
G1 X215.138Y210.478
G1 X215.234Y210.727
G1 X215.369Y210.953
G1 X215.541Y211.14
G1 X215.748Y211.274
G1 X215.99Y211.354
G1 X216.268Y211.381
G1 X216.525Y211.357
G1 X216.76Y211.285
G1 X216.972Y211.164
G1 X217.16Y210.996
G1 X217.315Y210.781
G1 X217.425Y210.521
M5
G0 X213.019Y212.072
M3
G1 X213.096Y212.209
G1 X213.15Y212.393
G1 X213.182Y212.623
G1 X213.193Y212.9
G1 X213.182Y213.157
G1 X213.149Y213.373
G1 X213.094Y213.547
G1 X213.018Y213.68
G1 X212.924Y213.778
G1 X212.82Y213.848
G1 X212.705Y213.89
G1 X212.58Y213.904
G1 X212.455Y213.89
G1 X212.34Y213.848
G1 X212.237Y213.777
G1 X212.144Y213.678
G1 X212.068Y213.541
G1 X212.014Y213.357
G1 X211.981Y213.125
G1 X211.971Y212.846
G1 X211.982Y212.591
G1 X212.015Y212.377
G1 X212.07Y212.203
G1 X212.146Y212.07
G1 X212.239Y211.972
G1 X212.343Y211.902
G1 X212.456Y211.86
G1 X212.58Y211.846
G1 X212.707Y211.86
G1 X212.823Y211.902
G1 X212.927Y211.973
G1 X213.019Y212.072
M5
G0 X213.606Y211.971
M3
G1 X213.449Y211.754
G1 X213.26Y211.582
G1 X213.05Y211.46
G1 X212.82Y211.386
G1 X212.568Y211.361
G1 X212.319Y211.386
G1 X212.092Y211.458
G1 X211.887Y211.579
G1 X211.703Y211.748
G1 X211.552Y211.966
G1 X211.444Y212.233
G1 X211.379Y212.55
G1 X211.357Y212.916
G1 X211.377Y213.211
G1 X211.434Y213.483
G1 X211.531Y213.733
G1 X211.666Y213.959
G1 X211.838Y214.147
G1 X212.044Y214.281
G1 X212.285Y214.362
G1 X212.56Y214.389
G1 X212.818Y214.365
G1 X213.053Y214.293
G1 X213.265Y214.172
G1 X213.453Y214.004
G1 X213.608Y213.789
G1 X213.718Y213.529
G1 X213.784Y213.224
G1 X213.807Y212.873
G1 X213.784Y212.531
G1 X213.717Y212.23
G1 X213.606Y211.971
M5
G0 X209.767Y212.036
M3
G1 X209.741Y212.316
G1 X209.705Y212.565
G1 X209.659Y212.786
G1 X209.602Y212.976
G1 X209.535Y213.137
G1 X209.457Y213.268
G1 X209.282Y213.471
G1 X209.087Y213.616
G1 X208.871Y213.703
G1 X208.635Y213.732
G1 X208.405Y213.707
G1 X208.2Y213.63
G1 X208.018Y213.502
G1 X207.862Y213.322
G1 X207.777Y213.178
G1 X207.703Y213.005
G1 X207.64Y212.805
G1 X207.589Y212.577
G1 X207.55Y212.322
G1 X207.521Y212.038
G1 X207.504Y211.727
G1 Y211.389
G1 Y211.051
G1 X207.519Y210.743
G1 X207.545Y210.464
G1 X207.581Y210.214
G1 X207.627Y209.995
G1 X207.684Y209.804
G1 X207.751Y209.643
G1 X207.829Y209.512
G1 X208.003Y209.308
G1 X208.197Y209.162
G1 X208.41Y209.074
G1 X208.643Y209.045
G1 X208.876Y209.074
G1 X209.089Y209.162
G1 X209.283Y209.309
G1 X209.457Y209.514
G1 X209.535Y209.646
G1 X209.602Y209.807
G1 X209.659Y209.997
G1 X209.705Y210.217
G1 X209.741Y210.466
G1 X209.767Y210.744
G1 X209.782Y211.052
G1 Y211.389
G1 Y211.727
G1 X209.767Y212.036
M5
G0 X210.478Y212.153
M3
G1 X210.502Y211.793
G1 Y211.389
G1 Y210.909
G1 X210.458Y210.478
G1 X210.394Y210.096
G1 X210.303Y209.762
G1 X210.187Y209.47
G1 X210.045Y209.213
G1 X209.877Y208.991
G1 X209.684Y208.805
G1 X209.464Y208.657
G1 X209.218Y208.551
G1 X208.944Y208.488
G1 X208.643Y208.467
G1 X208.251Y208.504
G1 X207.904Y208.615
G1 X207.601Y208.801
G1 X207.342Y209.061
G1 X207.209Y209.253
G1 X207.094Y209.474
G1 X206.997Y209.723
G1 X206.917Y210
G1 X206.855Y210.305
G1 X206.811Y210.638
G1 X206.785Y210.999
G1 Y211.389
G1 Y211.872
G1 X206.828Y212.305
G1 X206.893Y212.689
G1 X206.985Y213.023
G1 X207.102Y213.315
G1 X207.245Y213.572
G1 X207.413Y213.793
G1 X207.606Y213.979
G1 X207.825Y214.126
G1 X208.071Y214.231
G1 X208.344Y214.294
G1 X208.643Y214.314
G1 X208.866Y214.303
G1 X209.076Y214.268
G1 X209.271Y214.21
G1 X209.452Y214.129
G1 X209.618Y214.026
G1 X209.769Y213.902
G1 X209.905Y213.758
G1 X210.026Y213.594
G1 X210.228Y213.206
G1 X210.381Y212.742
G1 X210.438Y212.469
G1 X210.478Y212.153
M5
G0 X205.311Y212.416
M3
G1 X205.291Y212.703
G1 X205.231Y212.959
G1 X205.13Y213.184
G1 X204.989Y213.377
G1 X204.82Y213.533
G1 X204.634Y213.644
G1 X204.432Y213.71
G1 X204.214Y213.732
G1 X203.987Y213.709
G1 X203.775Y213.637
G1 X203.579Y213.517
G1 X203.397Y213.35
G1 X203.245Y213.144
G1 X203.137Y212.91
G1 X203.071Y212.648
G1 X203.05Y212.357
G1 X203.07Y212.097
G1 X203.132Y211.862
G1 X203.235Y211.653
G1 X203.38Y211.469
G1 X203.554Y211.319
G1 X203.748Y211.212
G1 X203.962Y211.148
G1 X204.194Y211.127
G1 X204.427Y211.148
G1 X204.639Y211.212
G1 X204.829Y211.319
G1 X204.997Y211.469
G1 X205.135Y211.656
G1 X205.233Y211.877
G1 X205.292Y212.13
G1 X205.311Y212.416
M5
G0 X206.033Y212.475
M3
G1 X206.078Y212.041
G1 X206.093Y211.545
G1 X206.078Y211.024
G1 X206.033Y210.559
G1 X205.959Y210.15
G1 X205.854Y209.797
G1 X205.721Y209.491
G1 X205.558Y209.224
G1 X205.366Y208.996
G1 X205.145Y208.807
G1 X204.9Y208.658
G1 X204.634Y208.552
G1 X204.348Y208.488
G1 X204.042Y208.467
G1 X203.721Y208.49
G1 X203.432Y208.56
G1 X203.172Y208.677
G1 X202.944Y208.84
G1 X202.753Y209.045
G1 X202.603Y209.289
G1 X202.497Y209.57
G1 X202.432Y209.889
G1 X203.108Y209.951
G1 X203.161Y209.729
G1 X203.233Y209.54
G1 X203.325Y209.384
G1 X203.436Y209.26
G1 X203.566Y209.166
G1 X203.713Y209.099
G1 X203.877Y209.058
G1 X204.057Y209.045
G1 X204.215
G1 X204.362Y209.082
G1 X204.499Y209.128
G1 X204.626Y209.193
G1 X204.848Y209.367
G1 X205.026Y209.59
G1 X205.17Y209.881
G1 X205.288Y210.26
G1 X205.367Y210.686
G1 X205.393Y211.119
G1 Y211.26
G1 X205.274Y211.1
G1 X205.14Y210.956
G1 X204.986Y210.827
G1 X204.813Y210.715
G1 X204.627Y210.623
G1 X204.433Y210.558
G1 X204.231Y210.519
G1 X204.022Y210.506
G1 X203.681Y210.538
G1 X203.366Y210.635
G1 X203.079Y210.796
G1 X202.819Y211.022
G1 X202.604Y211.3
G1 X202.45Y211.619
G1 X202.358Y211.98
G1 X202.327Y212.381
G1 X202.359Y212.795
G1 X202.455Y213.167
G1 X202.616Y213.496
G1 X202.841Y213.783
G1 X203.114Y214.016
G1 X203.419Y214.182
G1 X203.757Y214.281
G1 X204.128Y214.314
G1 X204.401Y214.296
G1 X204.662Y214.239
G1 X204.912Y214.145
G1 X205.149Y214.014
G1 X205.367Y213.847
G1 X205.557Y213.649
G1 X205.718Y213.419
G1 X205.852Y213.156
G1 X205.958Y212.847
G1 X206.033Y212.475
M5
G0 X212.584Y208.354
M3
G1 X215.717Y214.389
G1 X216.287
G1 X213.166Y208.354
G1 X212.584
M5
G0 X191.889Y209.615
M3
G1 X191.9Y209.893
G1 X191.889Y210.149
G1 X191.856Y210.365
G1 X191.801Y210.539
G1 X191.725Y210.672
G1 X191.631Y210.77
G1 X191.527Y210.84
G1 X191.413Y210.882
G1 X191.287Y210.897
G1 X191.16Y210.882
G1 X191.044Y210.84
G1 X190.94Y210.769
G1 X190.848Y210.67
G1 X190.772Y210.533
G1 X190.717Y210.349
G1 X190.685Y210.117
G1 X190.674Y209.838
G1 X190.685Y209.585
G1 X190.718Y209.371
G1 X190.773Y209.198
G1 X190.85Y209.064
G1 X190.943Y208.965
G1 X191.046Y208.895
G1 X191.159Y208.852
G1 X191.283Y208.838
G1 X191.412Y208.852
G1 X191.529Y208.895
G1 X191.634Y208.965
G1 X191.726Y209.064
G1 X191.803Y209.201
G1 X191.857Y209.385
G1 X191.889Y209.615
M5
G0 X192.491Y209.523
M3
G1 X192.424Y209.222
G1 X192.313Y208.963
G1 X192.156Y208.746
G1 X191.967Y208.574
G1 X191.756Y208.452
G1 X191.524Y208.378
G1 X191.271Y208.354
G1 X191.023Y208.378
G1 X190.795Y208.451
G1 X190.59Y208.572
G1 X190.406Y208.742
G1 X190.255Y208.961
G1 X190.147Y209.228
G1 X190.082Y209.544
G1 X190.06Y209.908
G1 X190.08Y210.205
G1 X190.138Y210.478
G1 X190.234Y210.727
G1 X190.369Y210.953
G1 X190.541Y211.14
G1 X190.748Y211.274
G1 X190.99Y211.354
G1 X191.268Y211.381
G1 X191.525Y211.357
G1 X191.76Y211.285
G1 X191.972Y211.164
G1 X192.16Y210.996
G1 X192.315Y210.781
G1 X192.425Y210.521
G1 X192.492Y210.216
G1 X192.514Y209.865
G1 X192.491Y209.523
M5
G0 X188.166Y208.354
M3
G1 X187.584
G1 X190.717Y214.389
G1 X191.287
G1 X188.166Y208.354
M5
G0 X184.457Y209.514
M3
G1 X184.535Y209.646
G1 X184.602Y209.807
G1 X184.659Y209.997
G1 X184.705Y210.217
G1 X184.741Y210.466
G1 X184.767Y210.744
G1 X184.782Y211.052
G1 Y211.389
G1 Y211.727
G1 X184.767Y212.036
G1 X184.741Y212.316
G1 X184.705Y212.565
G1 X184.659Y212.786
G1 X184.602Y212.976
G1 X184.535Y213.137
G1 X184.457Y213.268
G1 X184.282Y213.471
G1 X184.087Y213.616
G1 X183.871Y213.703
G1 X183.635Y213.732
G1 X183.405Y213.707
G1 X183.2Y213.63
G1 X183.018Y213.502
G1 X182.862Y213.322
G1 X182.777Y213.178
G1 X182.703Y213.005
G1 X182.64Y212.805
G1 X182.589Y212.577
G1 X182.55Y212.322
G1 X182.521Y212.038
G1 X182.504Y211.727
G1 Y211.389
G1 Y211.051
G1 X182.519Y210.743
G1 X182.545Y210.464
G1 X182.581Y210.214
G1 X182.627Y209.995
G1 X182.684Y209.804
G1 X182.751Y209.643
G1 X182.829Y209.512
G1 X183.003Y209.308
G1 X183.197Y209.162
G1 X183.41Y209.074
G1 X183.643Y209.045
G1 X183.876Y209.074
G1 X184.089Y209.162
G1 X184.283Y209.309
G1 X184.457Y209.514
M5
G0 X185.187Y209.47
M3
G1 X185.045Y209.213
G1 X184.877Y208.991
G1 X184.684Y208.805
G1 X184.464Y208.657
G1 X184.218Y208.551
G1 X183.944Y208.488
G1 X183.643Y208.467
G1 X183.251Y208.504
G1 X182.904Y208.615
G1 X182.601Y208.801
G1 X182.342Y209.061
G1 X182.209Y209.253
G1 X182.094Y209.474
G1 X181.997Y209.723
G1 X181.917Y210
G1 X181.855Y210.305
G1 X181.811Y210.638
G1 X181.785Y210.999
G1 Y211.389
G1 Y211.872
G1 X181.828Y212.305
G1 X181.893Y212.689
G1 X181.985Y213.023
G1 X182.102Y213.315
G1 X182.245Y213.572
G1 X182.413Y213.793
G1 X182.606Y213.979
G1 X182.825Y214.126
G1 X183.071Y214.231
G1 X183.344Y214.294
G1 X183.643Y214.314
G1 X183.866Y214.303
G1 X184.076Y214.268
G1 X184.271Y214.21
G1 X184.452Y214.129
G1 X184.618Y214.026
G1 X184.769Y213.902
G1 X184.905Y213.758
G1 X185.026Y213.594
G1 X185.228Y213.206
G1 X185.381Y212.742
G1 X185.438Y212.469
G1 X185.478Y212.153
G1 X185.502Y211.793
G1 Y211.389
G1 Y210.909
G1 X185.458Y210.478
G1 X185.394Y210.096
G1 X185.303Y209.762
G1 X185.187Y209.47
M5
G0 X187.343Y211.902
M3
G1 X187.456Y211.86
G1 X187.58Y211.846
G1 X187.707Y211.86
G1 X187.823Y211.902
G1 X187.927Y211.973
G1 X188.019Y212.072
G1 X188.096Y212.209
G1 X188.15Y212.393
G1 X188.182Y212.623
G1 X188.193Y212.9
G1 X188.182Y213.157
G1 X188.149Y213.373
G1 X188.094Y213.547
G1 X188.018Y213.68
G1 X187.924Y213.778
G1 X187.82Y213.848
G1 X187.705Y213.89
G1 X187.58Y213.904
G1 X187.455Y213.89
G1 X187.34Y213.848
G1 X187.237Y213.777
G1 X187.144Y213.678
G1 X187.068Y213.541
G1 X187.014Y213.357
G1 X186.981Y213.125
G1 X186.971Y212.846
G1 X186.982Y212.591
G1 X187.015Y212.377
G1 X187.07Y212.203
G1 X187.146Y212.07
G1 X187.239Y211.972
G1 X187.343Y211.902
M5
G0 X186.887Y211.579
M3
G1 X186.703Y211.748
G1 X186.552Y211.966
G1 X186.444Y212.233
G1 X186.379Y212.55
G1 X186.357Y212.916
G1 X186.377Y213.211
G1 X186.434Y213.483
G1 X186.531Y213.733
G1 X186.666Y213.959
G1 X186.838Y214.147
G1 X187.044Y214.281
G1 X187.285Y214.362
G1 X187.56Y214.389
G1 X187.818Y214.365
G1 X188.053Y214.293
G1 X188.265Y214.172
G1 X188.453Y214.004
G1 X188.608Y213.789
G1 X188.718Y213.529
G1 X188.784Y213.224
G1 X188.807Y212.873
G1 X188.784Y212.531
G1 X188.717Y212.23
G1 X188.606Y211.971
G1 X188.449Y211.754
G1 X188.26Y211.582
G1 X188.05Y211.46
G1 X187.82Y211.386
G1 X187.568Y211.361
G1 X187.319Y211.386
G1 X187.092Y211.458
G1 X186.887Y211.579
M5
G0 X180.289Y210.657
M3
G1 X180.184Y210.856
G1 X180.036Y211.033
G1 X179.856Y211.179
G1 X179.656Y211.282
G1 X179.434Y211.345
G1 X179.19Y211.365
G1 X178.953Y211.345
G1 X178.737Y211.283
G1 X178.542Y211.181
G1 X178.368Y211.037
G1 X178.225Y210.863
G1 X178.123Y210.668
G1 X178.062Y210.453
G1 X178.042Y210.217
G1 X178.078Y209.921
G1 X178.184Y209.635
G1 X178.264Y209.502
G1 X178.362Y209.385
G1 X178.476Y209.284
G1 X178.608Y209.199
G1 X178.752Y209.132
G1 X178.9Y209.084
G1 X179.054Y209.055
G1 X179.214Y209.045
G1 X179.455Y209.065
G1 X179.674Y209.126
G1 X179.871Y209.227
G1 X180.046Y209.369
G1 X180.189Y209.542
G1 X180.292Y209.737
G1 X180.353Y209.954
G1 X180.374Y210.193
G1 X180.353Y210.436
G1 X180.289Y210.657
M5
G0 X179.404Y211.955
M3
G1 X179.579Y212.003
G1 X179.737Y212.083
G1 X179.876Y212.195
G1 X179.99Y212.33
G1 X180.071Y212.48
G1 X180.119Y212.644
G1 X180.136Y212.822
G1 X180.119Y213.008
G1 X180.069Y213.178
G1 X179.985Y213.333
G1 X179.868Y213.473
G1 X179.726Y213.588
G1 X179.568Y213.67
G1 X179.393Y213.72
G1 X179.202Y213.736
G1 X179.009Y213.72
G1 X178.834Y213.672
G1 X178.675Y213.591
G1 X178.534Y213.479
G1 X178.418Y213.343
G1 X178.335Y213.195
G1 X178.285Y213.035
G1 X178.268Y212.861
G1 X178.285Y212.668
G1 X178.334Y212.492
G1 X178.416Y212.335
G1 X178.53Y212.197
G1 X178.671Y212.085
G1 X178.831Y212.004
G1 X179.011Y211.956
G1 X179.21Y211.939
G1 X179.404Y211.955
M5
G0 X180.015Y211.67
M3
G1 X180.262Y211.571
G1 X180.479Y211.445
G1 X180.664Y211.294
G1 X180.817Y211.115
G1 X180.938Y210.915
G1 X181.024Y210.695
G1 X181.075Y210.458
G1 X181.093Y210.201
G1 X181.06Y209.849
G1 X180.963Y209.525
G1 X180.8Y209.232
G1 X180.573Y208.967
G1 X180.293Y208.748
G1 X179.972Y208.592
G1 X179.609Y208.498
G1 X179.206Y208.467
G1 X178.803Y208.498
G1 X178.44Y208.592
G1 X178.119Y208.749
G1 X177.839Y208.969
G1 X177.611Y209.235
G1 X177.449Y209.533
G1 X177.352Y209.861
G1 X177.319Y210.221
G1 X177.337Y210.489
G1 X177.39Y210.734
G1 X177.479Y210.956
G1 X177.602Y211.156
G1 X177.759Y211.33
G1 X177.946Y211.473
G1 X178.162Y211.587
G1 X178.409Y211.67
G1 X178.204Y211.759
G1 X178.028Y211.864
G1 X177.88Y211.987
G1 X177.761Y212.127
G1 X177.668Y212.283
G1 X177.602Y212.453
G1 X177.563Y212.638
G1 X177.55Y212.838
G1 X177.578Y213.138
G1 X177.662Y213.413
G1 X177.802Y213.663
G1 X177.999Y213.889
G1 X178.242Y214.075
G1 X178.522Y214.208
G1 X178.84Y214.288
G1 X179.194Y214.314
G1 X179.551Y214.287
G1 X179.871Y214.206
G1 X180.154Y214.07
G1 X180.401Y213.879
G1 X180.601Y213.649
G1 X180.744Y213.396
G1 X180.83Y213.119
G1 X180.858Y212.818
G1 X180.845Y212.626
G1 X180.806Y212.446
G1 X180.741Y212.279
G1 X180.649Y212.125
G1 X180.531Y211.986
G1 X180.386Y211.864
G1 X180.214Y211.758
G1 X180.015Y211.67
M5
G0 X166.856Y210.365
M3
G1 X166.801Y210.539
G1 X166.725Y210.672
G1 X166.631Y210.77
G1 X166.527Y210.84
G1 X166.413Y210.882
G1 X166.287Y210.897
G1 X166.16Y210.882
G1 X166.044Y210.84
G1 X165.94Y210.769
G1 X165.848Y210.67
G1 X165.772Y210.533
G1 X165.717Y210.349
G1 X165.685Y210.117
G1 X165.674Y209.838
G1 X165.685Y209.585
G1 X165.718Y209.371
G1 X165.773Y209.198
G1 X165.85Y209.064
G1 X165.943Y208.965
G1 X166.046Y208.895
G1 X166.159Y208.852
G1 X166.283Y208.838
G1 X166.412Y208.852
G1 X166.529Y208.895
G1 X166.634Y208.965
G1 X166.726Y209.064
G1 X166.803Y209.201
G1 X166.857Y209.385
G1 X166.889Y209.615
G1 X166.9Y209.893
G1 X166.889Y210.149
G1 X166.856Y210.365
M5
G0 X167.425Y210.521
M3
G1 X167.492Y210.216
G1 X167.514Y209.865
G1 X167.491Y209.523
G1 X167.424Y209.222
G1 X167.313Y208.963
G1 X167.156Y208.746
G1 X166.967Y208.574
G1 X166.756Y208.452
G1 X166.524Y208.378
G1 X166.271Y208.354
G1 X166.023Y208.378
G1 X165.795Y208.451
G1 X165.59Y208.572
G1 X165.406Y208.742
G1 X165.255Y208.961
G1 X165.147Y209.228
G1 X165.082Y209.544
G1 X165.06Y209.908
G1 X165.08Y210.205
G1 X165.138Y210.478
G1 X165.234Y210.727
G1 X165.369Y210.953
G1 X165.541Y211.14
G1 X165.748Y211.274
G1 X165.99Y211.354
G1 X166.268Y211.381
G1 X166.525Y211.357
G1 X166.76Y211.285
G1 X166.972Y211.164
G1 X167.16Y210.996
G1 X167.315Y210.781
G1 X167.425Y210.521
M5
G0 X163.019Y212.072
M3
G1 X163.096Y212.209
G1 X163.15Y212.393
G1 X163.182Y212.623
G1 X163.193Y212.9
G1 X163.182Y213.157
G1 X163.149Y213.373
G1 X163.094Y213.547
G1 X163.018Y213.68
G1 X162.924Y213.778
G1 X162.82Y213.848
G1 X162.705Y213.89
G1 X162.58Y213.904
G1 X162.455Y213.89
G1 X162.34Y213.848
G1 X162.237Y213.777
G1 X162.144Y213.678
G1 X162.068Y213.541
G1 X162.014Y213.357
G1 X161.981Y213.125
G1 X161.971Y212.846
G1 X161.982Y212.591
G1 X162.015Y212.377
G1 X162.07Y212.203
G1 X162.146Y212.07
G1 X162.239Y211.972
G1 X162.343Y211.902
G1 X162.456Y211.86
G1 X162.58Y211.846
G1 X162.707Y211.86
G1 X162.823Y211.902
G1 X162.927Y211.973
G1 X163.019Y212.072
M5
G0 X163.606Y211.971
M3
G1 X163.449Y211.754
G1 X163.26Y211.582
G1 X163.05Y211.46
G1 X162.82Y211.386
G1 X162.568Y211.361
G1 X162.319Y211.386
G1 X162.092Y211.458
G1 X161.887Y211.579
G1 X161.703Y211.748
G1 X161.552Y211.966
G1 X161.444Y212.233
G1 X161.379Y212.55
G1 X161.357Y212.916
G1 X161.377Y213.211
G1 X161.434Y213.483
G1 X161.531Y213.733
G1 X161.666Y213.959
G1 X161.838Y214.147
G1 X162.044Y214.281
G1 X162.285Y214.362
G1 X162.56Y214.389
G1 X162.818Y214.365
G1 X163.053Y214.293
G1 X163.265Y214.172
G1 X163.453Y214.004
G1 X163.608Y213.789
G1 X163.718Y213.529
G1 X163.784Y213.224
G1 X163.807Y212.873
G1 X163.784Y212.531
G1 X163.717Y212.23
G1 X163.606Y211.971
M5
G0 X159.767Y212.036
M3
G1 X159.741Y212.316
G1 X159.705Y212.565
G1 X159.659Y212.786
G1 X159.602Y212.976
G1 X159.535Y213.137
G1 X159.457Y213.268
G1 X159.282Y213.471
G1 X159.087Y213.616
G1 X158.871Y213.703
G1 X158.635Y213.732
G1 X158.405Y213.707
G1 X158.2Y213.63
G1 X158.018Y213.502
G1 X157.862Y213.322
G1 X157.777Y213.178
G1 X157.703Y213.005
G1 X157.64Y212.805
G1 X157.589Y212.577
G1 X157.55Y212.322
G1 X157.521Y212.038
G1 X157.504Y211.727
G1 Y211.389
G1 Y211.051
G1 X157.519Y210.743
G1 X157.545Y210.464
G1 X157.581Y210.214
G1 X157.627Y209.995
G1 X157.684Y209.804
G1 X157.751Y209.643
G1 X157.829Y209.512
G1 X158.003Y209.308
G1 X158.197Y209.162
G1 X158.41Y209.074
G1 X158.643Y209.045
G1 X158.876Y209.074
G1 X159.089Y209.162
G1 X159.283Y209.309
G1 X159.457Y209.514
G1 X159.535Y209.646
G1 X159.602Y209.807
G1 X159.659Y209.997
G1 X159.705Y210.217
G1 X159.741Y210.466
G1 X159.767Y210.744
G1 X159.782Y211.052
G1 Y211.389
G1 Y211.727
G1 X159.767Y212.036
M5
G0 X160.478Y212.153
M3
G1 X160.502Y211.793
G1 Y211.389
G1 Y210.909
G1 X160.458Y210.478
G1 X160.394Y210.096
G1 X160.303Y209.762
G1 X160.187Y209.47
G1 X160.045Y209.213
G1 X159.877Y208.991
G1 X159.684Y208.805
G1 X159.464Y208.657
G1 X159.218Y208.551
G1 X158.944Y208.488
G1 X158.643Y208.467
G1 X158.251Y208.504
G1 X157.904Y208.615
G1 X157.601Y208.801
G1 X157.342Y209.061
G1 X157.209Y209.253
G1 X157.094Y209.474
G1 X156.997Y209.723
G1 X156.917Y210
G1 X156.855Y210.305
G1 X156.811Y210.638
G1 X156.785Y210.999
G1 Y211.389
G1 Y211.872
G1 X156.828Y212.305
G1 X156.893Y212.689
G1 X156.985Y213.023
G1 X157.102Y213.315
G1 X157.245Y213.572
G1 X157.413Y213.793
G1 X157.606Y213.979
G1 X157.825Y214.126
G1 X158.071Y214.231
G1 X158.344Y214.294
G1 X158.643Y214.314
G1 X158.866Y214.303
G1 X159.076Y214.268
G1 X159.271Y214.21
G1 X159.452Y214.129
G1 X159.618Y214.026
G1 X159.769Y213.902
G1 X159.905Y213.758
G1 X160.026Y213.594
G1 X160.228Y213.206
G1 X160.381Y212.742
G1 X160.438Y212.469
G1 X160.478Y212.153
M5
G0 X156.081Y213.67
M3
G1 X155.808Y213.355
G1 X155.536Y212.992
G1 X155.266Y212.582
G1 X154.997Y212.123
G1 X154.744Y211.637
G1 X154.521Y211.145
G1 X154.329Y210.645
G1 X154.167Y210.139
G1 X154.071Y209.771
G1 X153.994Y209.386
G1 X153.936Y208.984
G1 X153.897Y208.564
G1 X153.175
G1 X153.196Y208.92
G1 X153.247Y209.311
G1 X153.328Y209.736
G1 X153.44Y210.197
G1 X153.581Y210.672
G1 X153.749Y211.137
G1 X153.945Y211.594
G1 X154.169Y212.043
G1 X154.41Y212.47
G1 X154.659Y212.862
G1 X154.915Y213.219
G1 X155.179Y213.541
G1 X152.374
G1 Y214.217
G1 X156.081
G1 Y213.67
M5
G0 X165.717Y214.389
M3
G1 X166.287
G1 X163.166Y208.354
G1 X162.584
G1 X165.717Y214.389
M5
G0 X141.287Y214.389
M3
G1 X138.166Y208.354
G1 X137.584
G1 X140.717Y214.389
G1 X141.287
M5
G0 X138.094Y213.547
M3
G1 X138.018Y213.68
G1 X137.924Y213.778
G1 X137.82Y213.848
G1 X137.705Y213.89
G1 X137.58Y213.904
G1 X137.455Y213.89
G1 X137.34Y213.848
G1 X137.237Y213.777
G1 X137.144Y213.678
G1 X137.068Y213.541
G1 X137.014Y213.357
G1 X136.981Y213.125
G1 X136.971Y212.846
G1 X136.982Y212.591
G1 X137.015Y212.377
G1 X137.07Y212.203
G1 X137.146Y212.07
G1 X137.239Y211.972
G1 X137.343Y211.902
G1 X137.456Y211.86
G1 X137.58Y211.846
G1 X137.707Y211.86
G1 X137.823Y211.902
G1 X137.927Y211.973
G1 X138.019Y212.072
G1 X138.096Y212.209
G1 X138.15Y212.393
G1 X138.182Y212.623
G1 X138.193Y212.9
G1 X138.182Y213.157
G1 X138.149Y213.373
G1 X138.094Y213.547
M5
G0 X138.718Y213.529
M3
G1 X138.784Y213.224
G1 X138.807Y212.873
G1 X138.784Y212.531
G1 X138.717Y212.23
G1 X138.606Y211.971
G1 X138.449Y211.754
G1 X138.26Y211.582
G1 X138.05Y211.46
G1 X137.82Y211.386
G1 X137.568Y211.361
G1 X137.319Y211.386
G1 X137.092Y211.458
G1 X136.887Y211.579
G1 X136.703Y211.748
G1 X136.552Y211.966
G1 X136.444Y212.233
G1 X136.379Y212.55
G1 X136.357Y212.916
G1 X136.377Y213.211
G1 X136.434Y213.483
G1 X136.531Y213.733
G1 X136.666Y213.959
G1 X136.838Y214.147
G1 X137.044Y214.281
G1 X137.285Y214.362
G1 X137.56Y214.389
G1 X137.818Y214.365
G1 X138.053Y214.293
G1 X138.265Y214.172
G1 X138.453Y214.004
G1 X138.608Y213.789
G1 X138.718Y213.529
M5
G0 X134.602Y212.976
M3
G1 X134.535Y213.137
G1 X134.457Y213.268
G1 X134.282Y213.471
G1 X134.087Y213.616
G1 X133.871Y213.703
G1 X133.635Y213.732
G1 X133.405Y213.707
G1 X133.2Y213.63
G1 X133.018Y213.502
G1 X132.862Y213.322
G1 X132.777Y213.178
G1 X132.703Y213.005
G1 X132.64Y212.805
G1 X132.589Y212.577
G1 X132.55Y212.322
G1 X132.521Y212.038
G1 X132.504Y211.727
G1 Y211.389
G1 Y211.051
G1 X132.519Y210.743
G1 X132.545Y210.464
G1 X132.581Y210.214
G1 X132.627Y209.995
G1 X132.684Y209.804
G1 X132.751Y209.643
G1 X132.829Y209.512
G1 X133.003Y209.308
G1 X133.197Y209.162
G1 X133.41Y209.074
G1 X133.643Y209.045
G1 X133.876Y209.074
G1 X134.089Y209.162
G1 X134.283Y209.309
G1 X134.457Y209.514
G1 X134.535Y209.646
G1 X134.602Y209.807
G1 X134.659Y209.997
G1 X134.705Y210.217
G1 X134.741Y210.466
G1 X134.767Y210.744
G1 X134.782Y211.052
G1 Y211.389
G1 Y211.727
G1 X134.767Y212.036
G1 X134.741Y212.316
G1 X134.705Y212.565
G1 X134.659Y212.786
G1 X134.602Y212.976
M5
G0 X135.228Y213.206
M3
G1 X135.381Y212.742
G1 X135.438Y212.469
G1 X135.478Y212.153
G1 X135.502Y211.793
G1 Y211.389
G1 Y210.909
G1 X135.458Y210.478
G1 X135.394Y210.096
G1 X135.303Y209.762
G1 X135.187Y209.47
G1 X135.045Y209.213
G1 X134.877Y208.991
G1 X134.684Y208.805
G1 X134.464Y208.657
G1 X134.218Y208.551
G1 X133.944Y208.488
G1 X133.643Y208.467
G1 X133.251Y208.504
G1 X132.904Y208.615
G1 X132.601Y208.801
G1 X132.342Y209.061
G1 X132.209Y209.253
G1 X132.094Y209.474
G1 X131.997Y209.723
G1 X131.917Y210
G1 X131.855Y210.305
G1 X131.811Y210.638
G1 X131.785Y210.999
G1 Y211.389
G1 Y211.872
G1 X131.828Y212.305
G1 X131.893Y212.689
G1 X131.985Y213.023
G1 X132.102Y213.315
G1 X132.245Y213.572
G1 X132.413Y213.793
G1 X132.606Y213.979
G1 X132.825Y214.126
G1 X133.071Y214.231
G1 X133.344Y214.294
G1 X133.643Y214.314
G1 X133.866Y214.303
G1 X134.076Y214.268
G1 X134.271Y214.21
G1 X134.452Y214.129
G1 X134.618Y214.026
G1 X134.769Y213.902
G1 X134.905Y213.758
G1 X135.026Y213.594
G1 X135.228Y213.206
M5
G0 X130.042Y211.316
M3
G1 X129.873Y211.466
G1 X129.684Y211.573
G1 X129.475Y211.637
G1 X129.245Y211.658
G1 X129.016Y211.637
G1 X128.805Y211.573
G1 X128.611Y211.466
G1 X128.436Y211.316
G1 X128.291Y211.132
G1 X128.187Y210.921
G1 X128.125Y210.684
G1 X128.104Y210.42
G1 X128.114Y210.24
G1 X128.143Y210.064
G1 X128.191Y209.893
G1 X128.259Y209.725
G1 X128.344Y209.569
G1 X128.444Y209.432
G1 X128.559Y209.316
G1 X128.69Y209.219
G1 X128.831Y209.143
G1 X128.974Y209.088
G1 X129.122Y209.056
G1 X129.272Y209.045
G1 X129.487Y209.067
G1 X129.686Y209.135
G1 X129.87Y209.247
G1 X130.038Y209.404
G1 X130.178Y209.6
G1 X130.278Y209.828
G1 X130.338Y210.088
G1 X130.358Y210.381
G1 X130.339Y210.662
G1 X130.279Y210.912
G1 X130.18Y211.13
G1 X130.042Y211.316
M5
G0 X130.799Y211.484
M3
G1 X130.953Y211.169
G1 X131.046Y210.815
G1 X131.077Y210.424
G1 X131.063Y210.159
G1 X131.019Y209.904
G1 X130.946Y209.658
G1 X130.845Y209.422
G1 X130.718Y209.204
G1 X130.569Y209.013
G1 X130.398Y208.85
G1 X130.206Y208.713
G1 X129.996Y208.605
G1 X129.772Y208.528
G1 X129.535Y208.482
G1 X129.284Y208.467
G1 X128.865Y208.507
G1 X128.486Y208.628
G1 X128.148Y208.83
G1 X127.85Y209.113
G1 X127.72Y209.288
G1 X127.608Y209.489
G1 X127.512Y209.716
G1 X127.434Y209.969
G1 X127.374Y210.249
G1 X127.33Y210.554
G1 X127.304Y210.886
G1 Y211.244
G1 Y211.645
G1 X127.334Y212.018
G1 X127.382Y212.362
G1 X127.449Y212.678
G1 X127.535Y212.965
G1 X127.641Y213.225
G1 X127.765Y213.456
G1 X127.909Y213.658
G1 X128.2Y213.945
G1 X128.537Y214.15
G1 X128.921Y214.273
G1 X129.35Y214.314
G1 X129.673Y214.291
G1 X129.965Y214.22
G1 X130.227Y214.101
G1 X130.458Y213.936
G1 X130.652Y213.728
G1 X130.803Y213.484
G1 X130.911Y213.205
G1 X130.975Y212.889
G1 X130.276Y212.834
G1 X130.224Y213.027
G1 X130.163Y213.191
G1 X130.092Y213.328
G1 X130.011Y213.436
G1 X129.86Y213.567
G1 X129.692Y213.661
G1 X129.508Y213.718
G1 X129.307Y213.736
G1 X129.145Y213.725
G1 X128.992Y213.689
G1 X128.85Y213.631
G1 X128.718Y213.549
G1 X128.56Y213.414
G1 X128.421Y213.251
G1 X128.299Y213.06
G1 X128.194Y212.842
G1 X128.11Y212.585
G1 X128.049Y212.278
G1 X128.01Y211.923
G1 X127.995Y211.518
G1 X128.129Y211.699
G1 X128.277Y211.855
G1 X128.44Y211.986
G1 X128.616Y212.092
G1 X128.802Y212.174
G1 X128.992Y212.232
G1 X129.187Y212.268
G1 X129.386Y212.279
G1 X129.724Y212.247
G1 X130.036Y212.15
G1 X130.323Y211.988
G1 X130.583Y211.762
G1 X130.799Y211.484
M5
G0 X140.717Y210.349
M3
G1 X140.685Y210.117
G1 X140.674Y209.838
G1 X140.685Y209.585
G1 X140.718Y209.371
G1 X140.773Y209.198
G1 X140.85Y209.064
G1 X140.943Y208.965
G1 X141.046Y208.895
